; generated by PrusaSlicer 2.3.1+win64 on 2021-07-07 at 10:37:25 UTC

; 

; external perimeters extrusion width = 0.68mm
; perimeters extrusion width = 0.68mm
; infill extrusion width = 0.68mm
; solid infill extrusion width = 0.68mm
; top infill extrusion width = 0.60mm
; first layer extrusion width = 0.70mm

M201 X500 Y500 Z100 E5000 ; sets maximum accelerations, mm/sec^2
M203 X500 Y500 Z10 E60 ; sets maximum feedrates, mm/sec
M204 P500 R1000 T500 ; sets acceleration (P, T) and retract acceleration (R), mm/sec^2
M205 X8.00 Y8.00 Z0.20 E5.00 ; sets the jerk limits, mm/sec
M205 S0 T0 ; sets the minimum extruding and travel feed rate, mm/sec
M107
M190 S57 ; set bed temperature and wait for it to be reached
M104 S207 ; set temperature
;TYPE:Custom
G28 ; home all axes
G1 Z5 F5000 ; lift nozzle
M109 S207 ; set temperature and wait for it to be reached
G21 ; set units to millimeters
G90 ; use absolute coordinates
M82 ; use absolute distances for extrusion
G92 E0
; Filament gcode
;LAYER_CHANGE
;Z:3.23
;HEIGHT:3.23
G1 Z3.230 F7800.000
G1 E-5.00000 F2400.000
G92 E0
G1 X95.738 Y70.475 F7800.000
G1 E5.00000 F2400.000
;TYPE:Skirt
;WIDTH:0.7
G1 F1800.000
G1 X96.476 Y69.661 E5.01009
G1 X97.338 Y68.979 E5.02017
G1 X98.307 Y68.447 E5.03032
G1 X99.542 Y68.038 E5.04227
G1 X100.840 Y67.877 E5.05427
G1 X122.006 Y67.875 E5.24858
G1 X123.226 Y67.990 E5.25983
G1 X124.411 Y68.329 E5.27114
G1 X125.506 Y68.879 E5.28239
G1 X126.486 Y69.625 E5.29370
G1 X127.311 Y70.540 E5.30501
G1 X127.950 Y71.586 E5.31626
G1 X128.386 Y72.738 E5.32757
G1 X128.602 Y73.944 E5.33882
G1 X128.597 Y146.110 E6.00129
G1 X128.454 Y146.994 E6.00952
G1 X128.194 Y147.851 E6.01774
G1 X127.817 Y148.671 E6.02602
G1 X127.336 Y149.427 E6.03425
G1 X126.757 Y150.111 E6.04247
G1 X126.091 Y150.711 E6.05070
G1 X125.351 Y151.215 E6.05892
G1 X124.549 Y151.615 E6.06715
G1 X123.448 Y151.965 E6.07776
G1 X122.308 Y152.118 E6.08831
G1 X114.220 Y152.097 E6.16256
G1 X113.404 Y151.970 E6.17015
G1 X112.610 Y151.742 E6.17773
G1 X111.850 Y151.417 E6.18531
G1 X111.131 Y150.997 E6.19296
G1 X110.471 Y150.490 E6.20060
G1 X109.884 Y149.908 E6.20818
G1 X109.374 Y149.259 E6.21576
G1 X108.946 Y148.545 E6.22341
G1 X91.696 Y108.536 E6.62337
G1 X91.461 Y107.566 E6.63253
G1 X91.376 Y106.573 E6.64168
G1 X91.403 Y81.477 E6.87206
G1 X91.540 Y80.618 E6.88005
G1 X91.789 Y79.783 E6.88804
G1 X95.145 Y71.400 E6.97094
G1 X95.689 Y70.551 E6.98020
G1 E1.98020 F2400.000
G92 E0
G1 X110.399 Y93.517 F7800.000
G1 E5.00000 F2400.000
;TYPE:Perimeter
;WIDTH:0.36
;HEIGHT:0.18
G1 F1800.000
G1 X110.854 Y93.254 E5.01264
G1 X111.341 Y93.057 E5.02528
G1 X111.851 Y92.930 E5.03792
G1 X112.352 Y92.877 E5.05004
G1 X112.897 Y92.893 E5.06314
G1 X113.417 Y92.984 E5.07584
G1 X113.917 Y93.147 E5.08848
G1 X114.369 Y93.368 E5.10060
G1 X114.823 Y93.669 E5.11369
G1 X115.215 Y94.023 E5.12639
G1 X115.553 Y94.426 E5.13903
G1 X115.832 Y94.871 E5.15168
G1 X116.045 Y95.351 E5.16432
G1 X116.190 Y95.857 E5.17696
G1 X116.263 Y96.377 E5.18960
G1 X116.263 Y96.903 E5.20224
G1 X116.190 Y97.423 E5.21488
G1 X116.045 Y97.928 E5.22752
G1 X115.832 Y98.408 E5.24016
G1 X115.553 Y98.854 E5.25280
G1 X115.215 Y99.257 E5.26544
G1 X114.841 Y99.594 E5.27756
G1 X114.391 Y99.901 E5.29065
G1 X113.917 Y100.133 E5.30335
G1 X113.437 Y100.289 E5.31547
G1 X112.902 Y100.386 E5.32857
G1 X112.374 Y100.405 E5.34127
G1 X111.851 Y100.350 E5.35391
G1 X111.341 Y100.223 E5.36655
G1 X110.854 Y100.026 E5.37919
G1 X110.399 Y99.763 E5.39183
G1 X109.985 Y99.440 E5.40447
G1 X109.619 Y99.061 E5.41711
G1 X109.311 Y98.636 E5.42975
G1 X109.064 Y98.172 E5.44239
G1 X108.884 Y97.678 E5.45503
G1 X108.775 Y97.164 E5.46767
G1 X108.738 Y96.640 E5.48031
G1 X108.775 Y96.116 E5.49295
G1 X108.884 Y95.601 E5.50559
G1 X109.064 Y95.108 E5.51823
G1 X109.311 Y94.644 E5.53088
G1 X109.619 Y94.218 E5.54352
G1 X109.985 Y93.840 E5.55616
G1 X110.328 Y93.572 E5.56663
G1 X110.526 Y93.825 F7800.000
G1 F1800.000
G1 X110.995 Y93.543 E5.57980
G1 X111.441 Y93.363 E5.59136
G1 X111.907 Y93.247 E5.60292
G1 X112.365 Y93.199 E5.61398
G1 X112.864 Y93.213 E5.62600
G1 X113.339 Y93.297 E5.63759
G1 X113.796 Y93.446 E5.64915
G1 X114.209 Y93.647 E5.66021
G1 X114.625 Y93.924 E5.67223
G1 X114.984 Y94.247 E5.68383
G1 X115.293 Y94.615 E5.69539
G1 X115.547 Y95.022 E5.70695
G1 X115.743 Y95.462 E5.71850
G1 X115.875 Y95.924 E5.73006
G1 X115.942 Y96.400 E5.74162
G1 X115.942 Y96.880 E5.75318
G1 X115.875 Y97.356 E5.76474
G1 X115.743 Y97.818 E5.77630
G1 X115.547 Y98.257 E5.78786
G1 X115.293 Y98.665 E5.79942
G1 X114.984 Y99.033 E5.81098
G1 X114.642 Y99.341 E5.82204
G1 X114.229 Y99.623 E5.83406
G1 X113.796 Y99.834 E5.84565
G1 X113.359 Y99.976 E5.85671
G1 X112.867 Y100.066 E5.86873
G1 X112.385 Y100.083 E5.88033
G1 X111.907 Y100.033 E5.89189
G1 X111.441 Y99.916 E5.90345
G1 X110.995 Y99.736 E5.91501
G1 X110.579 Y99.496 E5.92656
G1 X110.200 Y99.200 E5.93812
G1 X109.866 Y98.854 E5.94968
G1 X109.584 Y98.465 E5.96124
G1 X109.358 Y98.041 E5.97280
G1 X109.194 Y97.589 E5.98436
G1 X109.094 Y97.119 E5.99592
G1 X109.060 Y96.640 E6.00748
G1 X109.094 Y96.160 E6.01904
G1 X109.194 Y95.690 E6.03060
G1 X109.358 Y95.239 E6.04216
G1 X109.584 Y94.814 E6.05372
G1 X109.866 Y94.425 E6.06528
G1 X110.200 Y94.080 E6.07684
G1 X110.455 Y93.881 E6.08461
G1 X110.759 Y94.051 F7800.000
;TYPE:External perimeter
G1 F1800.000
G1 X111.136 Y93.833 E6.09509
G1 X111.540 Y93.670 E6.10556
G1 X111.963 Y93.564 E6.11604
G1 X112.377 Y93.521 E6.12605
G1 X112.831 Y93.534 E6.13698
G1 X113.261 Y93.610 E6.14747
G1 X113.675 Y93.744 E6.15795
G1 X114.049 Y93.927 E6.16796
G1 X114.428 Y94.179 E6.17889
G1 X114.752 Y94.470 E6.18938
G1 X115.032 Y94.804 E6.19986
G1 X115.263 Y95.174 E6.21034
G1 X115.440 Y95.572 E6.22082
G1 X115.560 Y95.991 E6.23130
G1 X115.621 Y96.422 E6.24178
G1 X115.621 Y96.858 E6.25225
G1 X115.560 Y97.289 E6.26273
G1 X115.440 Y97.708 E6.27321
G1 X115.263 Y98.106 E6.28369
G1 X115.032 Y98.475 E6.29417
G1 X114.752 Y98.809 E6.30465
G1 X114.443 Y99.088 E6.31465
G1 X114.067 Y99.344 E6.32559
G1 X113.675 Y99.535 E6.33608
G1 X113.280 Y99.664 E6.34608
G1 X112.832 Y99.746 E6.35702
G1 X112.396 Y99.761 E6.36751
G1 X111.963 Y99.715 E6.37799
G1 X111.540 Y99.610 E6.38846
G1 X111.136 Y99.447 E6.39894
G1 X110.759 Y99.229 E6.40942
G1 X110.416 Y98.961 E6.41990
G1 X110.113 Y98.647 E6.43038
G1 X109.857 Y98.295 E6.44086
G1 X109.652 Y97.910 E6.45134
G1 X109.503 Y97.501 E6.46181
G1 X109.413 Y97.074 E6.47229
G1 X109.382 Y96.640 E6.48277
G1 X109.413 Y96.205 E6.49325
G1 X109.503 Y95.779 E6.50373
G1 X109.652 Y95.370 E6.51421
G1 X109.857 Y94.985 E6.52468
G1 X110.113 Y94.632 E6.53516
G1 X110.416 Y94.319 E6.54564
G1 X110.688 Y94.106 E6.55396
G1 X110.729 Y93.616 F7800.000
G1 E1.55396 F2400.000
G92 E0
G1 X102.736 Y100.522 F7800.000
G1 E5.00000 F2400.000
;TYPE:Perimeter
G1 F1800.000
G1 X108.123 Y100.522 E5.12954
G1 X108.123 Y75.323 E5.73558
G1 X121.177 Y75.323 E6.04954
G1 X121.177 Y116.022 E7.02835
G1 X117.828 Y116.022 E7.10890
G1 X117.828 Y109.479 E7.26627
G1 X111.775 Y109.479 E7.41183
G1 X111.775 Y125.353 E7.79361
G1 X111.759 Y125.561 E7.79863
G1 X111.718 Y125.733 E7.80288
G1 X111.650 Y125.896 E7.80712
G1 X111.558 Y126.046 E7.81137
G1 X110.950 Y126.677 E7.83244
G1 X108.241 Y126.677 E7.89760
G1 X108.123 Y126.559 E7.90162
G1 X108.123 Y105.677 E8.40383
G1 X102.855 Y105.677 E8.53052
G1 X102.768 Y105.667 E8.53263
G1 X102.697 Y105.632 E8.53453
G1 X102.360 Y105.277 E8.54629
G1 X99.619 Y105.277 E8.61222
G1 X99.619 Y105.876 E8.62662
G1 X99.121 Y105.906 E8.63861
G1 X98.823 Y105.864 E8.64586
G1 X98.823 Y82.428 E9.20950
G1 X101.823 Y79.428 E9.31153
G1 X101.823 Y75.323 E9.41026
G1 X102.736 Y75.323 E9.43223
G1 X102.736 Y100.432 E10.03609
G1 X103.058 Y100.200 F7800.000
G1 F1800.000
G1 X107.801 Y100.200 E10.15018
G1 X107.801 Y75.001 E10.75621
G1 X121.499 Y75.001 E11.08563
G1 X121.499 Y116.343 E12.07990
G1 X117.507 Y116.343 E12.17591
G1 X117.507 Y109.800 E12.33328
G1 X112.097 Y109.800 E12.46339
G1 X112.097 Y125.365 E12.83774
G1 X112.077 Y125.612 E12.84367
G1 X112.024 Y125.832 E12.84913
G1 X111.938 Y126.042 E12.85459
G1 X111.819 Y126.236 E12.86005
G1 X111.659 Y126.423 E12.86599
G1 X111.083 Y126.999 E12.88555
G1 X108.108 Y126.999 E12.95712
G1 X107.801 Y126.692 E12.96754
G1 X107.801 Y105.999 E13.46522
G1 X102.836 Y105.999 E13.58464
G1 X102.693 Y105.982 E13.58809
G1 X102.586 Y105.943 E13.59085
G1 X102.490 Y105.880 E13.59360
G1 X102.222 Y105.599 E13.60294
G1 X99.940 Y105.599 E13.65783
G1 X99.940 Y106.107 E13.67004
G1 X99.792 Y106.161 E13.67384
G1 X99.361 Y106.226 E13.68433
G1 X99.106 Y106.227 E13.69046
G1 X98.859 Y106.202 E13.69642
G1 X98.571 Y106.135 E13.70353
G1 X98.501 Y106.101 E13.70540
G1 X98.501 Y82.295 E14.27795
G1 X101.501 Y79.295 E14.37998
G1 X101.501 Y75.001 E14.48323
G1 X103.058 Y75.001 E14.52066
G1 X103.058 Y100.110 E15.12453
G1 X103.379 Y99.879 F7800.000
;TYPE:External perimeter
G1 F1800.000
G1 X107.480 Y99.879 E15.22316
G1 X107.480 Y74.680 E15.82919
G1 X121.820 Y74.680 E16.17407
G1 X121.820 Y116.665 E17.18380
G1 X117.185 Y116.665 E17.29526
G1 X117.185 Y110.121 E17.45263
G1 X112.418 Y110.121 E17.56728
G1 X112.418 Y125.378 E17.93420
G1 X112.396 Y125.662 E17.94105
G1 X112.331 Y125.932 E17.94773
G1 X112.225 Y126.188 E17.95441
G1 X112.080 Y126.425 E17.96109
G1 X111.895 Y126.642 E17.96793
G1 X111.217 Y127.320 E17.99100
G1 X107.975 Y127.320 E18.06897
G1 X107.480 Y126.825 E18.08579
G1 X107.480 Y106.320 E18.57895
G1 X102.818 Y106.320 E18.69108
G1 X102.619 Y106.297 E18.69589
G1 X102.441 Y106.232 E18.70044
G1 X102.282 Y106.129 E18.70500
G1 X102.084 Y105.920 E18.71192
G1 X100.262 Y105.920 E18.75575
G1 X100.262 Y106.332 E18.76565
G1 X99.880 Y106.471 E18.77542
G1 X99.644 Y106.520 E18.78123
G1 X99.378 Y106.547 E18.78764
G1 X99.090 Y106.549 E18.79456
G1 X98.806 Y106.520 E18.80143
G1 X98.463 Y106.440 E18.80990
G1 X98.180 Y106.302 E18.81748
G1 X98.180 Y82.162 E19.39806
G1 X101.180 Y79.162 E19.50010
G1 X101.180 Y74.680 E19.60788
G1 X103.379 Y74.680 E19.66077
G1 X103.379 Y99.789 E20.26463
G1 X103.396 Y100.479 F7800.000
G1 E15.26463 F2400.000
G92 E0
G1 X108.502 Y97.702 F7800.000
G1 E5.00000 F2400.000
;TYPE:Gap fill
;WIDTH:0.43369
G1 F1800.000
G1 X108.476 Y97.462 E5.00714
;WIDTH:0.332586
G1 X108.430 Y96.630 E5.02547
;WIDTH:0.374131
G1 X108.451 Y96.058 E5.03982
;WIDTH:0.403911
G1 X108.476 Y95.818 E5.04642
;WIDTH:0.433691
G1 X108.502 Y95.578 E5.05356
G1 E0.05356 F2400.000
G92 E0
G1 X120.427 Y75.419 F7800.000
G1 E5.00000 F2400.000
;TYPE:Solid infill
;WIDTH:0.361961
G1 F1800.000
G1 X120.936 Y75.928 E5.01742
G1 X120.936 Y76.386 E5.02849
G1 X120.114 Y75.564 E5.05661
G1 X119.657 Y75.564 E5.06768
G1 X120.936 Y76.843 E5.11145
G1 X120.936 Y77.300 E5.12251
G1 X119.200 Y75.564 E5.18193
G1 X118.743 Y75.564 E5.19299
G1 X120.936 Y77.757 E5.26806
G1 X120.936 Y78.215 E5.27912
G1 X118.285 Y75.564 E5.36983
G1 X117.828 Y75.564 E5.38090
G1 X120.936 Y78.672 E5.48726
G1 X120.936 Y79.129 E5.49832
G1 X117.371 Y75.564 E5.62033
G1 X116.914 Y75.564 E5.63139
G1 X120.936 Y79.586 E5.76905
G1 X120.936 Y80.044 E5.78011
G1 X116.456 Y75.564 E5.93341
G1 X115.999 Y75.564 E5.94448
G1 X120.936 Y80.501 E6.11342
G1 X120.936 Y80.958 E6.12449
G1 X115.542 Y75.564 E6.30908
G1 X115.085 Y75.564 E6.32015
G1 X120.936 Y81.415 E6.52039
G1 X120.936 Y81.873 E6.53145
G1 X114.627 Y75.564 E6.74734
G1 X114.170 Y75.564 E6.75841
G1 X120.936 Y82.330 E6.98995
G1 X120.936 Y82.787 E7.00101
G1 X113.713 Y75.564 E7.24819
G1 X113.255 Y75.564 E7.25926
G1 X120.936 Y83.245 E7.52209
G1 X120.936 Y83.702 E7.53315
G1 X112.798 Y75.564 E7.81163
G1 X112.341 Y75.564 E7.82270
G1 X120.936 Y84.159 E8.11682
G1 X120.936 Y84.616 E8.12789
G1 X111.884 Y75.564 E8.43766
G1 X111.426 Y75.564 E8.44872
G1 X120.936 Y85.074 E8.77414
G1 X120.936 Y85.531 E8.78521
G1 X110.969 Y75.564 E9.12628
G1 X110.512 Y75.564 E9.13734
G1 X120.936 Y85.988 E9.49405
G1 X120.936 Y86.445 E9.50512
G1 X110.055 Y75.564 E9.87748
G1 X109.597 Y75.564 E9.88854
G1 X120.936 Y86.903 E10.27655
G1 X120.936 Y87.360 E10.28762
G1 X109.140 Y75.564 E10.69127
G1 X108.683 Y75.564 E10.70234
G1 X120.936 Y87.817 E11.12164
G1 X120.936 Y88.274 E11.13271
G1 X108.364 Y75.702 E11.56293
G1 X108.364 Y76.159 E11.57399
G1 X120.936 Y88.732 E12.00421
G1 X120.936 Y89.189 E12.01528
G1 X108.364 Y76.616 E12.44550
G1 X108.364 Y77.074 E12.45657
G1 X120.936 Y89.646 E12.88679
G1 X120.936 Y90.103 E12.89785
G1 X108.364 Y77.531 E13.32807
G1 X108.364 Y77.988 E13.33914
G1 X120.936 Y90.561 E13.76936
G1 X120.936 Y91.018 E13.78043
G1 X108.364 Y78.445 E14.21065
G1 X108.364 Y78.903 E14.22171
G1 X120.936 Y91.475 E14.65194
G1 X120.936 Y91.933 E14.66300
G1 X108.364 Y79.360 E15.09322
G1 X108.364 Y79.817 E15.10429
G1 X120.936 Y92.390 E15.53451
G1 X120.936 Y92.847 E15.54557
G1 X108.364 Y80.275 E15.97580
G1 X108.364 Y80.732 E15.98686
G1 X120.936 Y93.304 E16.41708
G1 X120.936 Y93.762 E16.42815
G1 X108.364 Y81.189 E16.85837
G1 X108.364 Y81.646 E16.86943
G1 X120.936 Y94.219 E17.29966
G1 X120.936 Y94.676 E17.31072
G1 X108.364 Y82.104 E17.74094
G1 X108.364 Y82.561 E17.75201
G1 X120.936 Y95.133 E18.18223
G1 X120.936 Y95.591 E18.19329
G1 X108.364 Y83.018 E18.62352
G1 X108.364 Y83.475 E18.63458
G1 X120.936 Y96.048 E19.06480
G1 X120.936 Y96.505 E19.07587
G1 X108.364 Y83.933 E19.50609
G1 X108.364 Y84.390 E19.51715
G1 X120.936 Y96.962 E19.94738
G1 X120.936 Y97.420 E19.95844
G1 X108.364 Y84.847 E20.38866
G1 X108.364 Y85.304 E20.39973
G1 X120.936 Y97.877 E20.82995
G1 X120.936 Y98.334 E20.84101
G1 X108.364 Y85.762 E21.27124
G1 X108.364 Y86.219 E21.28230
G1 X120.936 Y98.791 E21.71252
G1 X120.936 Y99.249 E21.72359
G1 X108.364 Y86.676 E22.15381
G1 X108.364 Y87.133 E22.16487
G1 X114.292 Y93.062 E22.36774
G1 X114.490 Y93.158 E22.37306
G1 X114.971 Y93.479 E22.38705
G1 X115.389 Y93.855 E22.40066
G1 X115.749 Y94.284 E22.41420
G1 X116.045 Y94.758 E22.42773
G1 X116.091 Y94.860 E22.43045
G1 X120.936 Y99.706 E22.59626
G1 X120.936 Y100.163 E22.60732
G1 X116.365 Y95.592 E22.76374
G1 X116.427 Y95.806 E22.76913
G1 X116.476 Y96.161 E22.77779
G1 X120.936 Y100.620 E22.93040
G1 X120.936 Y101.078 E22.94146
G1 X116.505 Y96.646 E23.09311
G1 X116.505 Y96.920 E23.09973
G1 X116.482 Y97.081 E23.10367
G1 X120.936 Y101.535 E23.25609
G1 X120.936 Y101.992 E23.26716
G1 X116.425 Y97.481 E23.42154
G1 X116.323 Y97.836 E23.43049
G1 X120.936 Y102.450 E23.58836
G1 X120.936 Y102.907 E23.59943
G1 X116.201 Y98.172 E23.76146
G1 X116.060 Y98.488 E23.76984
G1 X120.936 Y103.364 E23.93670
G1 X120.936 Y103.821 E23.94776
G1 X115.888 Y98.773 E24.12051
G1 X115.705 Y99.048 E24.12849
G1 X120.936 Y104.279 E24.30749
G1 X120.936 Y104.736 E24.31855
G1 X115.497 Y99.296 E24.50469
G1 X115.273 Y99.530 E24.51251
G1 X120.936 Y105.193 E24.70631
G1 X120.936 Y105.650 E24.71738
G1 X115.032 Y99.746 E24.91942
G1 X114.766 Y99.937 E24.92734
G1 X120.936 Y106.108 E25.13849
G1 X120.936 Y106.565 E25.14956
G1 X114.492 Y100.120 E25.37008
G1 X114.184 Y100.270 E25.37835
G1 X120.936 Y107.022 E25.60940
G1 X120.936 Y107.479 E25.62046
G1 X113.861 Y100.404 E25.86257
G1 X113.516 Y100.516 E25.87135
G1 X120.936 Y107.937 E26.12526
G1 X120.936 Y108.394 E26.13633
G1 X113.132 Y100.589 E26.40340
G1 X112.928 Y100.627 E26.40841
G1 X112.719 Y100.634 E26.41347
G1 X120.936 Y108.851 E26.69465
G1 X120.936 Y109.308 E26.70572
G1 X112.263 Y100.636 E27.00250
G1 X111.741 Y100.571 E27.01522
G1 X120.936 Y109.766 E27.32986
G1 X120.936 Y110.223 E27.34093
G1 X110.836 Y100.122 E27.68656
G1 E22.68656 F2400.000
G92 E0
G1 X109.033 Y98.320 F7800.000
G1 E5.00000 F2400.000
G1 F1800.000
G1 X108.643 Y97.929 E5.01337
G1 X108.364 Y97.959 E5.02015
G1 X108.364 Y98.108 E5.02376
G1 X120.936 Y110.680 E5.45398
G1 X120.936 Y111.138 E5.46505
G1 X108.364 Y98.565 E5.89527
G1 X108.364 Y99.022 E5.90634
G1 X120.936 Y111.595 E6.33656
G1 X120.936 Y112.052 E6.34762
G1 X108.364 Y99.480 E6.77784
G1 X108.364 Y99.937 E6.78891
G1 X117.665 Y109.238 E7.10717
G1 X118.069 Y109.238 E7.11697
G1 X118.069 Y109.642 E7.12676
G1 X120.936 Y112.509 E7.22487
G1 X120.936 Y112.967 E7.23593
G1 X118.069 Y110.099 E7.33404
G1 X118.069 Y110.557 E7.34511
G1 X120.936 Y113.424 E7.44322
G1 X120.936 Y113.881 E7.45428
G1 X118.069 Y111.014 E7.55239
G1 X118.069 Y111.471 E7.56345
G1 X120.936 Y114.338 E7.66157
G1 X120.936 Y114.796 E7.67263
G1 X118.069 Y111.928 E7.77074
