; generated by PrusaSlicer 2.3.1+win64 on 2021-07-07 at 10:37:34 UTC

; 

; external perimeters extrusion width = 0.68mm
; perimeters extrusion width = 0.68mm
; infill extrusion width = 0.68mm
; solid infill extrusion width = 0.68mm
; top infill extrusion width = 0.60mm
; first layer extrusion width = 0.70mm

M201 X500 Y500 Z100 E5000 ; sets maximum accelerations, mm/sec^2
M203 X500 Y500 Z10 E60 ; sets maximum feedrates, mm/sec
M204 P500 R1000 T500 ; sets acceleration (P, T) and retract acceleration (R), mm/sec^2
M205 X8.00 Y8.00 Z0.20 E5.00 ; sets the jerk limits, mm/sec
M205 S0 T0 ; sets the minimum extruding and travel feed rate, mm/sec
M107
M190 S57 ; set bed temperature and wait for it to be reached
M104 S207 ; set temperature
;TYPE:Custom
G28 ; home all axes
G1 Z5 F5000 ; lift nozzle
M109 S207 ; set temperature and wait for it to be reached
G21 ; set units to millimeters
G90 ; use absolute coordinates
M82 ; use absolute distances for extrusion
G92 E0
; Filament gcode
;LAYER_CHANGE
;Z:0.35
;HEIGHT:0.35
G1 Z0.350 F7800.000
G1 E-5.00000 F2400.000
G92 E0
G1 X79.291 Y99.823 F7800.000
G1 E5.00000 F2400.000
;TYPE:Skirt
;WIDTH:0.7
G1 F1800.000
G1 X80.525 Y98.570 E5.15991
G1 X81.481 Y97.895 E5.26634
G1 X82.537 Y97.354 E5.37422
G1 X83.676 Y96.963 E5.48374
G1 X84.863 Y96.739 E5.59357
G1 X110.002 Y95.222 E7.88361
G1 X112.813 Y95.399 E8.13974
G1 X115.616 Y95.952 E8.39951
G1 X118.385 Y96.892 E8.66536
G1 X120.922 Y98.154 E8.92304
G1 X123.308 Y99.763 E9.18472
G1 X125.469 Y101.686 E9.44772
G1 X127.303 Y103.812 E9.70302
G1 X128.833 Y106.139 E9.95631
G1 X129.497 Y107.712 E10.11158
G1 X129.816 Y109.433 E10.27070
G1 X129.754 Y111.132 E10.42528
G1 X129.329 Y112.785 E10.58049
G1 X128.477 Y114.465 E10.75180
G1 X127.013 Y116.564 E10.98453
G1 X125.438 Y118.346 E11.20076
G1 X123.707 Y119.920 E11.41351
G1 X122.257 Y121.003 E11.57810
G1 X120.714 Y121.965 E11.74339
G1 X119.147 Y122.772 E11.90368
G1 X117.395 Y123.493 E12.07591
G1 X115.629 Y124.045 E12.24416
G1 X113.768 Y124.456 E12.41742
G1 X112.055 Y124.685 E12.57465
G1 X110.189 Y124.778 E12.74452
G1 X84.648 Y123.233 E15.07121
G1 X83.122 Y122.869 E15.21381
G1 X81.673 Y122.218 E15.35828
G1 X80.445 Y121.363 E15.49433
G1 X79.345 Y120.244 E15.63698
G1 X78.658 Y119.261 E15.74610
G1 X78.128 Y118.207 E15.85339
G1 X77.747 Y117.078 E15.96170
G1 X77.530 Y115.933 E16.06762
G1 X77.467 Y114.930 E16.15907
G1 X77.481 Y104.622 E17.09631
G1 X77.750 Y102.910 E17.25388
G1 X78.362 Y101.282 E17.41204
G1 X79.243 Y99.899 E17.56117
G1 E12.56117 F2400.000
G92 E0
G1 X88.816 Y104.924 F7800.000
G1 E5.00000 F2400.000
;TYPE:Perimeter
G1 F1800.000
G1 X109.238 Y103.672 E6.86040
G1 X110.055 Y103.648 E6.93476
G1 X110.747 Y103.666 E6.99772
G1 X111.526 Y103.730 E7.06872
G1 X112.277 Y103.837 E7.13774
G1 X113.007 Y103.983 E7.20540
G1 X113.710 Y104.165 E7.27149
G1 X114.413 Y104.389 E7.33856
G1 X115.151 Y104.673 E7.41046
G1 X115.798 Y104.964 E7.47501
G1 X116.486 Y105.323 E7.54557
G1 X117.145 Y105.718 E7.61539
G1 X117.786 Y106.152 E7.68583
G1 X118.439 Y106.651 E7.76050
G1 X117.347 Y106.812 E7.86085
G1 X116.929 Y106.990 E7.90217
G1 X116.731 Y106.657 E7.93741
G1 X115.361 Y106.804 E8.06278
G1 X114.802 Y107.048 E8.11816
G1 X114.593 Y107.234 E8.14365
G1 X114.183 Y106.960 E8.18852
G1 X113.472 Y106.779 E8.25521
G1 X112.977 Y106.733 E8.30047
G1 X112.285 Y106.932 E8.36589
G1 X112.182 Y107.020 E8.37823
G1 X111.339 Y106.792 E8.45769
G1 X110.764 Y106.851 E8.51024
G1 X110.248 Y107.064 E8.56104
G1 X110.090 Y106.962 E8.57810
G1 X109.637 Y106.797 E8.62202
G1 X108.661 Y106.677 E8.71135
G1 X107.801 Y107.088 E8.79799
G1 X107.049 Y107.832 E8.89421
G1 X106.756 Y107.211 E8.95670
G1 X106.320 Y106.601 E9.02487
G1 X105.960 Y106.238 E9.07137
G1 X105.611 Y105.961 E9.11181
G1 X104.986 Y105.612 E9.17698
G1 X104.271 Y105.391 E9.24498
G1 X103.472 Y105.274 E9.31847
G1 X101.662 Y105.232 E9.48301
G1 X101.112 Y105.294 E9.53335
G1 X100.680 Y105.426 E9.57450
G1 X100.282 Y105.633 E9.61524
G1 X100.101 Y105.779 E9.63638
G1 X99.979 Y105.678 E9.65081
G1 X99.590 Y105.449 E9.69182
G1 X99.075 Y105.247 E9.74216
G1 X98.674 Y105.151 E9.77963
G1 X98.097 Y105.078 E9.83248
G1 X97.588 Y105.073 E9.87883
G1 X97.162 Y105.111 E9.91768
G1 X96.731 Y105.195 E9.95765
G1 X96.257 Y105.367 E10.00346
G1 X95.789 Y105.648 E10.05309
G1 X95.266 Y105.333 E10.10860
G1 X94.741 Y105.310 E10.15637
G1 X94.548 Y105.266 E10.17440
G1 X91.986 Y105.246 E10.40739
G1 X91.007 Y105.253 E10.49640
G1 X90.001 Y105.374 E10.58853
G1 X89.692 Y105.663 E10.62701
G1 X89.051 Y105.317 E10.69323
G1 X88.780 Y105.236 E10.71894
G1 X88.806 Y105.013 E10.73929
G1 E5.73929 F2400.000
G92 E0
G1 X116.399 Y107.321 F7800.000
G1 E5.00000 F2400.000
G1 F1800.000
G1 X115.523 Y107.415 E5.08010
G1 X115.144 Y107.581 E5.11770
G1 X114.924 Y107.776 E5.14444
G1 X114.674 Y107.909 E5.17022
G1 X114.569 Y108.121 E5.19174
G1 X114.307 Y107.795 E5.22981
G1 X113.925 Y107.539 E5.27161
G1 X113.365 Y107.396 E5.32410
G1 X113.036 Y107.366 E5.35416
G1 X112.589 Y107.495 E5.39649
G1 X112.144 Y107.876 E5.44977
G1 X111.867 Y107.582 E5.48650
G1 X111.287 Y107.425 E5.54109
G1 X110.918 Y107.463 E5.57480
G1 X110.183 Y107.767 E5.64717
G1 X109.809 Y107.525 E5.68766
G1 X109.490 Y107.408 E5.71863
G1 X108.766 Y107.320 E5.78489
G1 X108.166 Y107.606 E5.84538
G1 X107.706 Y108.062 E5.90423
G1 X107.491 Y108.638 E5.96014
G1 X107.522 Y109.246 E6.01551
G1 X107.666 Y109.679 E6.05703
G1 X107.803 Y109.957 E6.08522
G1 X108.082 Y110.441 E6.13600
G1 X107.882 Y110.644 E6.16195
G1 X107.510 Y110.437 E6.20066
G1 X107.078 Y110.346 E6.24080
G1 X106.677 Y110.347 E6.27727
G1 X106.764 Y109.674 E6.33897
G1 X106.728 Y109.036 E6.39708
G1 X106.653 Y108.639 E6.43379
G1 X106.501 Y108.134 E6.48180
G1 X106.215 Y107.528 E6.54267
G1 X105.841 Y107.006 E6.60115
G1 X105.542 Y106.704 E6.63974
G1 X105.263 Y106.482 E6.67217
G1 X104.738 Y106.190 E6.72678
G1 X104.133 Y106.002 E6.78443
G1 X103.419 Y105.897 E6.85001
G1 X101.690 Y105.858 E7.00727
G1 X101.239 Y105.908 E7.04851
G1 X100.917 Y106.007 E7.07912
G1 X100.626 Y106.158 E7.10900
G1 X100.361 Y106.372 E7.13998
G1 X100.125 Y106.675 E7.17483
G1 X99.984 Y106.493 E7.19572
G1 X99.619 Y106.191 E7.23881
G1 X99.316 Y106.013 E7.27077
G1 X98.887 Y105.845 E7.31267
G1 X98.561 Y105.767 E7.34313
G1 X98.054 Y105.702 E7.38958
G1 X97.612 Y105.698 E7.42978
G1 X97.250 Y105.730 E7.46284
G1 X96.898 Y105.799 E7.49547
G1 X96.527 Y105.934 E7.53138
G1 X96.124 Y106.176 E7.57411
G1 X95.743 Y106.473 E7.61806
G1 X95.467 Y106.184 E7.65443
G1 X95.080 Y105.950 E7.69558
G1 X94.658 Y105.932 E7.73402
G1 X94.470 Y105.889 E7.75151
G1 X93.806 Y105.873 E7.81189
G1 X91.046 Y105.878 E8.06283
G1 X90.278 Y105.970 E8.13318
G1 X89.690 Y106.520 E8.20635
G1 X89.272 Y106.147 E8.25726
G1 X88.810 Y105.897 E8.30507
G1 X88.425 Y105.781 E8.34159
G1 X87.903 Y105.706 E8.38960
G1 X87.436 Y105.700 E8.43207
G1 X87.078 Y105.728 E8.46469
G1 X86.585 Y105.821 E8.51035
G1 X85.982 Y106.045 E8.56884
G1 X85.661 Y106.224 E8.60226
G1 X85.263 Y106.508 E8.64672
G1 X85.270 Y105.072 E8.77730
G1 X85.297 Y104.897 E8.79340
G1 X85.343 Y104.773 E8.80541
G1 X85.473 Y104.607 E8.82459
G1 X85.670 Y104.510 E8.84463
G1 X85.862 Y104.479 E8.86225
G1 X109.210 Y103.048 E10.98926
G1 X110.054 Y103.023 E11.06608
G1 X110.781 Y103.041 E11.13221
G1 X111.595 Y103.108 E11.20650
G1 X112.383 Y103.220 E11.27883
G1 X113.147 Y103.374 E11.34967
G1 X113.884 Y103.565 E11.41889
G1 X114.620 Y103.799 E11.48917
G1 X115.392 Y104.096 E11.56435
G1 X116.072 Y104.402 E11.63215
G1 X116.792 Y104.778 E11.70599
G1 X117.481 Y105.190 E11.77908
G1 X118.152 Y105.645 E11.85275
G1 X118.742 Y106.096 E11.92028
G1 X119.348 Y106.616 E11.99288
G1 X120.063 Y107.306 E12.08320
G1 X118.197 Y107.318 E12.25288
G1 X117.518 Y107.419 E12.31528
G1 X117.155 Y107.573 E12.35115
G1 X117.026 Y107.697 E12.36741
G1 X116.707 Y107.842 E12.39923
G1 X116.445 Y107.398 E12.44612
G1 E7.44612 F2400.000
G92 E0
G1 X109.880 Y108.316 F7800.000
G1 E5.00000 F2400.000
;TYPE:External perimeter
G1 F1800.000
G1 X109.830 Y108.512 E5.01839
G1 X110.105 Y108.909 E5.06233
G1 X110.148 Y108.791 E5.07372
G1 X110.291 Y108.886 E5.08939
G1 X110.399 Y108.678 E5.11069
G1 X110.546 Y108.509 E5.13104
G1 X110.542 Y108.295 E5.15054
G1 X111.073 Y108.075 E5.20276
G1 X111.236 Y108.059 E5.21764
G1 X111.533 Y108.139 E5.24565
G1 X111.799 Y108.421 E5.28090
G1 X111.916 Y108.598 E5.30016
G1 X111.990 Y108.852 E5.32420
G1 X111.964 Y109.135 E5.35006
G1 X111.754 Y109.607 E5.39703
G1 X111.706 Y109.824 E5.41730
G1 X111.560 Y110.202 E5.45413
G1 X111.358 Y110.619 E5.49618
G1 X111.336 Y110.744 E5.50771
G1 X112.082 Y112.002 E5.64076
G1 X112.224 Y112.395 E5.67876
G1 X112.244 Y112.740 E5.71011
G1 X112.162 Y113.077 E5.74170
G1 X111.968 Y113.346 E5.77187
G1 X111.723 Y113.523 E5.79932
G1 X111.471 Y113.618 E5.82379
G1 X111.235 Y113.597 E5.84539
G1 X110.971 Y113.555 E5.86967
G1 X110.616 Y113.396 E5.90504
G1 X110.515 Y113.034 E5.93923
G1 X110.130 Y112.380 E6.00819
G1 X109.738 Y112.981 E6.07343
G1 X109.702 Y113.076 E6.08264
G1 X109.628 Y113.167 E6.09330
G1 X109.592 Y113.282 E6.10426
G1 X109.426 Y113.396 E6.12262
G1 X109.271 Y113.470 E6.13820
G1 X108.961 Y113.525 E6.16681
G1 X108.780 Y113.381 E6.18781
G1 X108.574 Y113.286 E6.20849
G1 X108.338 Y113.037 E6.23965
G1 X108.166 Y112.545 E6.28709
G1 X107.907 Y113.093 E6.34221
G1 X107.755 Y113.288 E6.36473
G1 X107.627 Y113.402 E6.38034
G1 X107.506 Y113.568 E6.39895
G1 X107.365 Y113.685 E6.41568
G1 X107.109 Y113.812 E6.44167
G1 X106.833 Y113.872 E6.46730
G1 X106.533 Y113.875 E6.49460
G1 X106.247 Y113.782 E6.52198
G1 X106.016 Y113.647 E6.54630
G1 X105.885 Y113.543 E6.56154
G1 X105.708 Y113.318 E6.58755
G1 X105.633 Y113.090 E6.60935
G1 X105.547 Y112.943 E6.62485
G1 X105.465 Y112.720 E6.64648
G1 X105.361 Y112.156 E6.69862
G1 X105.111 Y112.452 E6.73391
G1 X104.917 Y112.631 E6.75790
G1 X104.679 Y112.810 E6.78492
G1 X104.524 Y112.997 E6.80704
G1 X104.273 Y113.157 E6.83410
G1 X104.019 Y113.270 E6.85940
G1 X103.727 Y113.355 E6.88706
G1 X103.239 Y113.418 E6.93175
G1 X102.853 Y113.434 E6.96694
G1 X102.142 Y113.423 E7.03158
G1 X101.492 Y113.466 E7.09077
G1 X101.194 Y113.405 E7.11841
G1 X100.993 Y113.288 E7.13962
G1 X100.839 Y113.135 E7.15931
G1 X100.699 Y112.882 E7.18567
G1 X100.639 Y112.660 E7.20655
G1 X100.629 Y112.338 E7.23587
G1 X100.718 Y111.641 E7.29971
G1 X100.728 Y111.100 E7.34894
G1 X100.587 Y109.477 E7.49711
G1 X100.613 Y108.058 E7.62616
G1 X100.556 Y107.322 E7.69328
G1 X100.669 Y106.993 E7.72492
G1 X100.809 Y106.813 E7.74559
G1 X100.970 Y106.684 E7.76434
G1 X101.155 Y106.587 E7.78335
G1 X101.366 Y106.523 E7.80344
G1 X101.717 Y106.484 E7.83557
G1 X103.366 Y106.521 E7.98554
G1 X103.994 Y106.613 E8.04322
G1 X104.491 Y106.767 E8.09052
G1 X104.914 Y107.003 E8.13458
G1 X105.124 Y107.170 E8.15899
G1 X105.362 Y107.410 E8.18967
G1 X105.674 Y107.846 E8.23847
G1 X105.916 Y108.358 E8.28996
G1 X106.045 Y108.788 E8.33078
G1 X106.107 Y109.112 E8.36075
G1 X106.137 Y109.651 E8.40987
G1 X106.086 Y110.042 E8.44569
G1 X106.035 Y110.269 E8.46689
G1 X105.959 Y110.424 E8.48256
G1 X105.807 Y111.318 E8.56502
G1 X106.328 Y111.087 E8.61684
G1 X106.552 Y111.031 E8.63787
G1 X106.708 Y111.014 E8.65208
G1 X106.818 Y110.971 E8.66283
G1 X107.014 Y110.971 E8.68068
G1 X107.288 Y111.029 E8.70617
G1 X107.535 Y111.166 E8.73186
G1 X107.747 Y111.355 E8.75769
G1 X107.966 Y111.742 E8.79813
G1 X108.058 Y111.959 E8.81957
G1 X108.096 Y112.172 E8.83918
G1 X108.366 Y112.209 E8.86390
G1 X108.461 Y112.013 E8.88366
G1 X108.658 Y111.688 E8.91821
G1 X108.721 Y111.409 E8.94428
G1 X108.821 Y111.137 E8.97064
G1 X109.021 Y110.775 E9.00823
G1 X108.886 Y110.584 E9.02940
G1 X108.355 Y109.662 E9.12618
G1 X108.245 Y109.441 E9.14865
G1 X108.142 Y109.130 E9.17849
G1 X108.122 Y108.735 E9.21439
G1 X108.243 Y108.409 E9.24607
G1 X108.530 Y108.125 E9.28277
G1 X108.871 Y107.962 E9.31711
G1 X109.343 Y108.020 E9.36030
G1 X109.529 Y108.088 E9.37832
G1 X109.805 Y108.267 E9.40820
G1 X110.071 Y108.382 F7800.000
G1 E4.40820 F2400.000
G92 E0
G1 X99.855 Y109.016 F7800.000
G1 E5.00000 F2400.000
G1 F1800.000
G1 X99.658 Y109.083 E5.01893
G1 X99.594 Y109.224 E5.03305
G1 X99.329 Y109.490 E5.06718
G1 X99.584 Y109.710 E5.09785
G1 X99.686 Y109.872 E5.11519
G1 X99.862 Y109.941 E5.13241
G1 X99.948 Y110.307 E5.16656
G1 X100.033 Y110.493 E5.18516
G1 X100.105 Y111.120 E5.24258
G1 X100.085 Y111.646 E5.29044
G1 X99.996 Y112.124 E5.33464
G1 X99.847 Y112.504 E5.37176
G1 X99.696 Y112.736 E5.39689
G1 X99.520 Y112.947 E5.42191
G1 X99.127 Y113.257 E5.46737
G1 X98.771 Y113.433 E5.50346
G1 X98.293 Y113.564 E5.54854
G1 X97.873 Y113.605 E5.58698
G1 X97.421 Y113.598 E5.62800
G1 X97.009 Y113.541 E5.66584
G1 X96.661 Y113.444 E5.69871
G1 X96.347 Y113.303 E5.73000
G1 X96.077 Y113.112 E5.76013
G1 X95.857 Y112.858 E5.79061
G1 X95.721 Y112.578 E5.81890
G1 X95.653 Y112.253 E5.84915
G1 X95.675 Y111.913 E5.88006
G1 X95.805 Y111.601 E5.91086
G1 X96.028 Y111.367 E5.94026
G1 X96.304 Y111.220 E5.96872
G1 X96.638 Y111.165 E5.99947
G1 X97.155 Y111.258 E6.04725
G1 X97.433 Y111.373 E6.07459
G1 X97.817 Y111.634 E6.11687
G1 X97.963 Y111.549 E6.13222
G1 X98.025 Y111.480 E6.14068
G1 X98.064 Y111.389 E6.14964
G1 X98.074 Y111.288 E6.15891
G1 X98.050 Y111.178 E6.16911
G1 X97.969 Y111.027 E6.18473
G1 X97.874 Y110.914 E6.19814
G1 X97.758 Y110.817 E6.21188
G1 X97.575 Y110.722 E6.23069
G1 X97.041 Y110.588 E6.28074
G1 X96.862 Y110.514 E6.29829
G1 X96.707 Y110.415 E6.31503
G1 X96.558 Y110.260 E6.33461
G1 X96.428 Y109.963 E6.36407
G1 X96.482 Y109.530 E6.40371
G1 X96.601 Y109.365 E6.42223
G1 X96.691 Y109.185 E6.44056
G1 X96.868 Y108.980 E6.46516
G1 X97.155 Y108.839 E6.49418
G1 X97.519 Y108.778 E6.52775
G1 X97.821 Y108.500 E6.56504
G1 X97.709 Y108.253 E6.58967
G1 X97.477 Y108.278 E6.61095
G1 X97.421 Y108.222 E6.61812
G1 X97.009 Y108.489 E6.66276
G1 X96.767 Y108.572 E6.68600
G1 X96.511 Y108.559 E6.70932
G1 X96.255 Y108.432 E6.73531
G1 X96.067 Y108.247 E6.75924
G1 X95.957 Y108.078 E6.77757
G1 X95.863 Y107.824 E6.80228
G1 X95.854 Y107.589 E6.82361
G1 X95.840 Y107.587 E6.82498
G1 X95.972 Y107.249 E6.85798
G1 X96.169 Y107.036 E6.88442
G1 X96.340 Y106.800 E6.91089
G1 X96.479 Y106.691 E6.92686
G1 X96.797 Y106.501 E6.96059
G1 X97.065 Y106.403 E6.98660
G1 X97.338 Y106.350 E7.01189
G1 X97.637 Y106.323 E7.03918
G1 X98.012 Y106.327 E7.07322
G1 X98.449 Y106.382 E7.11326
G1 X98.699 Y106.442 E7.13671
G1 X99.042 Y106.577 E7.17018
G1 X99.259 Y106.704 E7.19310
G1 X99.533 Y106.931 E7.22536
G1 X99.748 Y107.208 E7.25730
G1 X99.870 Y107.431 E7.28039
G1 X99.955 Y107.753 E7.31069
G1 X99.985 Y108.073 E7.33992
G1 X99.978 Y108.378 E7.36763
G1 X99.914 Y108.512 E7.38119
G1 X99.866 Y108.926 E7.41911
G1 X99.887 Y109.222 F7800.000
G1 E2.41911 F2400.000
G92 E0
G1 X100.055 Y114.117 F7800.000
G1 E5.00000 F2400.000
;TYPE:Perimeter
G1 F1800.000
G1 X100.226 Y114.287 E5.02191
G1 X100.742 Y114.589 E5.07632
G1 X101.408 Y114.724 E5.13805
G1 X102.173 Y114.674 E5.20782
G1 X102.869 Y114.684 E5.27107
G1 X103.345 Y114.665 E5.31444
G1 X103.984 Y114.582 E5.37299
G1 X104.449 Y114.446 E5.41702
G1 X104.862 Y114.264 E5.45806
G1 X104.992 Y114.430 E5.47725
G1 X105.309 Y114.681 E5.51406
G1 X105.733 Y114.929 E5.55874
G1 X106.342 Y115.126 E5.61694
G1 X106.974 Y115.120 E5.67438
G1 X107.524 Y115.001 E5.72559
G1 X108.052 Y114.740 E5.77910
G1 X108.262 Y114.565 E5.80396
G1 X108.625 Y114.854 E5.84620
G1 X109.657 Y114.670 E5.94147
G1 X110.019 Y114.497 E5.97795
G1 X110.510 Y114.718 E6.02693
G1 X110.474 Y114.971 E6.05018
G1 X110.542 Y115.631 E6.11046
G1 X110.847 Y116.337 E6.18043
G1 X109.993 Y116.353 E6.25803
G1 X109.211 Y116.326 E6.32922
G1 X88.662 Y115.067 E8.20121
G1 X88.637 Y114.741 E8.23086
G1 X88.803 Y114.705 E8.24632
G1 X89.331 Y114.517 E8.29725
G1 X89.837 Y114.235 E8.34995
G1 X90.292 Y113.865 E8.40328
G1 X90.649 Y113.444 E8.45351
G1 X90.938 Y113.932 E8.50511
G1 X91.507 Y114.408 E8.57261
G1 X92.142 Y114.651 E8.63437
G1 X92.626 Y114.714 E8.67876
G1 X93.107 Y114.693 E8.72260
G1 X93.742 Y114.510 E8.78265
G1 X94.368 Y114.072 E8.85211
G1 X94.765 Y113.505 E8.91504
G1 X95.231 Y114.044 E8.97981
G1 X95.725 Y114.394 E9.03485
G1 X96.235 Y114.622 E9.08570
G1 X96.754 Y114.768 E9.13474
G1 X97.326 Y114.847 E9.18722
G1 X97.925 Y114.856 E9.24165
G1 X98.521 Y114.797 E9.29616
G1 X99.217 Y114.607 E9.36179
