; generated by PrusaSlicer 2.3.1+win64 on 2021-07-13 at 21:23:22 UTC

; 

; external perimeters extrusion width = 0.68mm
; perimeters extrusion width = 0.68mm
; infill extrusion width = 0.68mm
; solid infill extrusion width = 0.68mm
; top infill extrusion width = 0.60mm
; first layer extrusion width = 0.70mm

M201 X500 Y500 Z100 E5000 ; sets maximum accelerations, mm/sec^2
M203 X500 Y500 Z10 E60 ; sets maximum feedrates, mm/sec
M204 P500 R1000 T500 ; sets acceleration (P, T) and retract acceleration (R), mm/sec^2
M205 X8.00 Y8.00 Z0.20 E5.00 ; sets the jerk limits, mm/sec
M205 S0 T0 ; sets the minimum extruding and travel feed rate, mm/sec
M107
M190 S57 ; set bed temperature and wait for it to be reached
M104 S207 ; set temperature
;TYPE:Custom
G28 ; home all axes
G1 Z5 F5000 ; lift nozzle
M109 S207 ; set temperature and wait for it to be reached
G21 ; set units to millimeters
G90 ; use absolute coordinates
M82 ; use absolute distances for extrusion
G92 E0
; Filament gcode
;LAYER_CHANGE
;Z:3.23
;HEIGHT:3.23
G1 Z3.230 F7800.000
G1 E-5.00000 F2400.000
G92 E0
G1 X84.793 Y95.888 F7800.000
G1 E5.00000 F2400.000
;TYPE:Skirt
;WIDTH:0.7
G1 F1800.000
G1 X114.087 Y71.848 E5.34787
G1 X115.143 Y71.202 E5.35924
G1 X116.307 Y70.763 E5.37067
G1 X117.457 Y70.555 E5.38139
G1 X118.910 Y70.528 E5.39473
G1 X121.143 Y70.583 E5.41523
G1 X122.443 Y70.767 E5.42729
G1 X123.863 Y71.235 E5.44101
G1 X125.240 Y72.015 E5.45554
G1 X126.404 Y73.021 E5.46966
G1 X127.399 Y74.316 E5.48465
G1 X128.089 Y75.740 E5.49918
G1 X128.496 Y77.399 E5.51487
G1 X134.299 Y126.517 E5.96890
G1 X134.351 Y127.799 E5.98068
G1 X134.162 Y129.328 E5.99482
G1 X133.725 Y130.747 E6.00845
G1 X133.041 Y132.087 E6.02226
G1 X132.132 Y133.288 E6.03609
G1 X131.040 Y134.304 E6.04978
G1 X129.785 Y135.119 E6.06352
G1 X128.378 Y135.715 E6.07754
G1 X126.844 Y136.059 E6.09198
G1 X125.797 Y136.132 E6.10162
G1 X124.746 Y136.080 E6.11128
G1 X123.793 Y135.888 E6.12020
G1 X122.878 Y135.558 E6.12912
G1 X84.773 Y117.312 E6.51696
G1 X83.614 Y116.524 E6.52983
G1 X82.663 Y115.694 E6.54141
G1 X81.795 Y114.740 E6.55326
G1 X81.079 Y113.747 E6.56449
G1 X80.441 Y112.613 E6.57644
G1 X79.963 Y111.472 E6.58779
G1 X79.606 Y110.256 E6.59943
G1 X79.395 Y109.042 E6.61074
G1 X79.321 Y107.562 E6.62434
G1 X79.496 Y105.425 E6.64403
G1 X79.788 Y103.970 E6.65765
G1 X80.387 Y102.095 E6.67572
G1 X80.973 Y100.767 E6.68905
G1 X81.682 Y99.507 E6.70231
G1 X82.845 Y97.880 E6.72068
G1 X83.877 Y96.736 E6.73482
G1 X84.727 Y95.949 E6.74545
G1 E1.74545 F2400.000
G92 E0
G1 X112.139 Y83.713 F7800.000
G1 E5.00000 F2400.000
;TYPE:External perimeter
;WIDTH:0.338252
;HEIGHT:0.18
G1 F1800.000
G1 X112.093 Y83.495 E5.00500
;WIDTH:0.374387
G1 X112.088 Y83.469 E5.00565
;WIDTH:0.410522
G1 X112.083 Y83.443 E5.00638
;WIDTH:0.446654
G1 X112.079 Y83.418 E5.00717
G1 X112.128 Y83.358 E5.00953
;WIDTH:0.350437
G1 X112.650 Y82.779 E5.02773
;WIDTH:0.380295
G1 X112.860 Y82.590 E5.03494
;WIDTH:0.413522
G1 X113.085 Y82.388 E5.04344
;WIDTH:0.446999
G1 X113.365 Y82.163 E5.05442
G1 E0.05442 F2400.000
G92 E0
G1 X110.957 Y85.414 F7800.000
G1 E5.00000 F2400.000
;TYPE:Perimeter
;WIDTH:0.36
G1 F1800.000
G1 X110.980 Y85.763 E5.00840
G1 X111.088 Y86.295 E5.02145
G1 X111.264 Y86.806 E5.03444
G1 X111.505 Y87.286 E5.04736
G1 X111.812 Y87.737 E5.06049
G1 X112.179 Y88.147 E5.07374
G1 X112.705 Y88.572 E5.08999
G1 X113.039 Y88.785 E5.09952
G1 X113.535 Y89.020 E5.11273
G1 X114.185 Y89.209 E5.12901
G1 X114.577 Y89.275 E5.13855
G1 X115.124 Y89.298 E5.15172
G1 X115.797 Y89.221 E5.16802
G1 X116.184 Y89.129 E5.17758
G1 X116.695 Y88.939 E5.19071
G1 X117.288 Y88.606 E5.20704
G1 X117.608 Y88.370 E5.21661
G1 X118.121 Y87.889 E5.23354
G1 X118.121 Y106.082 E5.67109
G1 X120.608 Y106.097 E5.73090
G1 X120.750 Y106.212 E5.73529
G1 X121.153 Y106.391 E5.74590
G1 X121.617 Y106.497 E5.75734
G1 X122.294 Y106.541 E5.77365
G1 X122.774 Y106.505 E5.78524
G1 X123.032 Y106.460 E5.79153
G1 X123.271 Y106.390 E5.79753
G1 X123.262 Y108.844 E5.85653
G1 X121.820 Y109.548 E5.89514
G1 X126.854 Y127.150 E6.33543
G1 X126.899 Y127.383 E6.34115
G1 X126.904 Y127.574 E6.34575
G1 X126.875 Y127.774 E6.35059
G1 X126.810 Y127.970 E6.35557
G1 X126.727 Y128.131 E6.35993
G1 X126.612 Y128.285 E6.36454
G1 X126.465 Y128.425 E6.36943
G1 X126.227 Y128.583 E6.37630
G1 X124.833 Y121.785 E6.54318
G1 X121.442 Y113.127 E6.76681
G1 X116.924 Y109.442 E6.90703
G1 X115.285 Y109.442 E6.94646
G1 X108.285 Y102.442 E7.18455
G1 X100.946 Y102.442 E7.36104
G1 X93.060 Y110.327 E7.62925
G1 X92.736 Y110.617 E7.63972
G1 X92.400 Y110.856 E7.64963
G1 X92.039 Y111.055 E7.65954
G1 X91.658 Y111.213 E7.66946
G1 X91.262 Y111.327 E7.67937
G1 X90.855 Y111.396 E7.68929
G1 X90.444 Y111.419 E7.69920
G1 X90.032 Y111.396 E7.70911
G1 X89.626 Y111.327 E7.71903
G1 X89.230 Y111.213 E7.72894
G1 X88.849 Y111.055 E7.73886
G1 X88.488 Y110.856 E7.74877
G1 X88.152 Y110.617 E7.75868
G1 X87.845 Y110.343 E7.76860
G1 X87.570 Y110.035 E7.77851
G1 X87.331 Y109.699 E7.78843
G1 X87.132 Y109.338 E7.79834
G1 X86.974 Y108.958 E7.80825
G1 X86.860 Y108.561 E7.81817
G1 X86.791 Y108.155 E7.82808
G1 X86.768 Y107.737 E7.83815
G1 X86.793 Y107.116 E7.85310
G1 X86.867 Y106.490 E7.86826
G1 X86.989 Y105.872 E7.88341
G1 X87.159 Y105.265 E7.89857
G1 X87.374 Y104.673 E7.91372
G1 X87.635 Y104.099 E7.92888
G1 X87.939 Y103.547 E7.94403
G1 X88.284 Y103.021 E7.95917
G1 X88.679 Y102.511 E7.97468
G1 X89.092 Y102.054 E7.98949
G1 X89.549 Y101.620 E8.00465
G1 X90.050 Y101.213 E8.02018
G1 X110.484 Y85.887 E8.63448
G1 X110.894 Y85.478 E8.64840
G1 E3.64840 F2400.000
G92 E0
G1 X118.443 Y105.763 F7800.000
G1 E5.00000 F2400.000
G1 F1800.000
G1 X120.723 Y105.776 E5.05484
G1 X120.919 Y105.935 E5.06092
G1 X121.256 Y106.085 E5.06977
G1 X121.663 Y106.178 E5.07983
G1 X122.292 Y106.219 E5.09498
G1 X122.734 Y106.185 E5.10565
G1 X122.959 Y106.147 E5.11114
G1 X123.326 Y106.039 E5.12033
G1 X123.593 Y105.887 E5.12771
G1 X123.593 Y108.745 E5.19643
G1 X123.545 Y109.063 E5.20417
G1 X122.203 Y109.719 E5.24009
G1 X127.167 Y127.075 E5.67423
G1 X127.220 Y127.348 E5.68094
G1 X127.226 Y127.594 E5.68685
G1 X127.189 Y127.848 E5.69302
G1 X127.107 Y128.095 E5.69928
G1 X127.000 Y128.302 E5.70490
G1 X126.853 Y128.499 E5.71080
G1 X126.666 Y128.677 E5.71701
G1 X126.448 Y128.821 E5.72329
G1 X126.229 Y128.919 E5.72906
G1 X125.981 Y128.982 E5.73523
G1 X124.524 Y121.877 E5.90965
G1 X121.174 Y113.323 E6.13060
G1 X116.810 Y109.763 E6.26604
G1 X115.152 Y109.763 E6.30592
G1 X108.152 Y102.763 E6.54400
G1 X101.079 Y102.763 E6.71409
G1 X93.281 Y110.561 E6.97931
G1 X92.936 Y110.869 E6.99043
G1 X92.571 Y111.129 E7.00121
G1 X92.178 Y111.345 E7.01200
G1 X91.764 Y111.517 E7.02278
G1 X91.333 Y111.641 E7.03356
G1 X90.891 Y111.716 E7.04434
G1 X90.444 Y111.741 E7.05513
G1 X89.996 Y111.716 E7.06591
G1 X89.554 Y111.641 E7.07669
G1 X89.123 Y111.517 E7.08747
G1 X88.709 Y111.345 E7.09825
G1 X88.317 Y111.129 E7.10904
G1 X87.951 Y110.869 E7.11982
G1 X87.617 Y110.570 E7.13060
G1 X87.318 Y110.236 E7.14138
G1 X87.059 Y109.870 E7.15216
G1 X86.842 Y109.478 E7.16295
G1 X86.670 Y109.064 E7.17373
G1 X86.546 Y108.633 E7.18451
G1 X86.471 Y108.191 E7.19529
G1 X86.446 Y107.740 E7.20617
G1 X86.472 Y107.090 E7.22180
G1 X86.549 Y106.440 E7.23755
G1 X86.676 Y105.797 E7.25330
G1 X86.852 Y105.167 E7.26905
G1 X87.076 Y104.551 E7.28480
G1 X87.347 Y103.955 E7.30055
G1 X87.663 Y103.381 E7.31630
G1 X88.022 Y102.834 E7.33204
G1 X88.432 Y102.304 E7.34815
G1 X88.861 Y101.829 E7.36355
G1 X89.337 Y101.379 E7.37930
G1 X89.852 Y100.960 E7.39528
G1 X110.273 Y85.644 E8.00918
G1 X111.308 Y84.610 E8.04436
G1 X111.267 Y85.225 E8.05919
G1 X111.300 Y85.721 E8.07115
G1 X111.398 Y86.210 E8.08315
G1 X111.561 Y86.681 E8.09512
G1 X111.783 Y87.124 E8.10705
G1 X112.065 Y87.538 E8.11910
G1 X112.401 Y87.914 E8.13122
G1 X112.893 Y88.311 E8.14642
G1 X113.195 Y88.504 E8.15503
G1 X113.649 Y88.719 E8.16713
G1 X114.257 Y88.895 E8.18235
G1 X114.610 Y88.955 E8.19097
G1 X115.112 Y88.976 E8.20304
G1 X115.741 Y88.904 E8.21828
G1 X116.090 Y88.821 E8.22690
G1 X116.560 Y88.646 E8.23895
G1 X117.113 Y88.336 E8.25420
G1 X117.402 Y88.123 E8.26284
G1 X117.767 Y87.781 E8.27486
G1 X118.157 Y87.280 E8.29013
G1 X118.301 Y87.037 E8.29692
G1 X118.443 Y87.076 E8.30046
G1 X118.443 Y105.673 E8.74772
G1 E3.74772 F2400.000
G92 E0
G1 X118.121 Y82.565 F7800.000
G1 E5.00000 F2400.000
G1 F1800.000
G1 X117.716 Y82.173 E5.01357
G1 X117.172 Y81.765 E5.02991
G1 X116.691 Y81.509 E5.04302
G1 X116.320 Y81.366 E5.05258
G1 X115.662 Y81.200 E5.06890
G1 X115.212 Y81.160 E5.07977
G1 X118.396 Y77.976 E5.18806
G1 X118.563 Y77.976 E5.19210
G1 X118.603 Y78.016 E5.19345
G1 X120.654 Y78.016 E5.24278
G1 X120.777 Y78.028 E5.24575
G1 X120.930 Y78.092 E5.24973
G1 X121.042 Y78.203 E5.25353
G1 X121.109 Y78.359 E5.25759
G1 X121.121 Y78.733 E5.26659
G1 X118.121 Y81.733 E5.36863
G1 X118.121 Y82.475 E5.38648
G1 X118.443 Y81.866 F7800.000
G1 F1800.000
G1 X118.443 Y83.391 E5.42317
G1 X118.300 Y83.430 E5.42672
G1 X118.081 Y83.055 E5.43717
G1 X117.765 Y82.668 E5.44918
G1 X117.507 Y82.418 E5.45782
G1 X116.999 Y82.037 E5.47307
G1 X116.557 Y81.802 E5.48512
G1 X116.222 Y81.673 E5.49375
G1 X115.608 Y81.518 E5.50899
G1 X115.108 Y81.473 E5.52105
G1 X114.750 Y81.485 E5.52967
G1 X114.596 Y81.509 E5.53342
G1 X114.533 Y81.384 E5.53677
G1 X118.263 Y77.655 E5.66362
G1 X118.697 Y77.655 E5.67406
G1 X118.736 Y77.695 E5.67540
G1 X120.670 Y77.695 E5.72192
G1 X120.841 Y77.712 E5.72604
G1 X120.981 Y77.755 E5.72957
G1 X121.111 Y77.824 E5.73310
G1 X121.225 Y77.919 E5.73667
G1 X121.311 Y78.024 E5.73994
G1 X121.386 Y78.165 E5.74376
G1 X121.425 Y78.295 E5.74705
G1 X121.443 Y78.468 E5.75123
G1 X121.443 Y78.866 E5.76079
G1 X118.506 Y81.802 E5.86066
G1 X118.764 Y81.999 F7800.000
;TYPE:External perimeter
G1 F1800.000
G1 X118.764 Y105.443 E6.42449
G1 X120.766 Y105.455 E6.47265
G1 X120.914 Y105.518 E6.47652
G1 X121.089 Y105.659 E6.48191
G1 X121.358 Y105.779 E6.48899
G1 X121.710 Y105.859 E6.49768
G1 X122.290 Y105.897 E6.51166
G1 X122.695 Y105.866 E6.52142
G1 X122.886 Y105.833 E6.52610
G1 X123.199 Y105.741 E6.53395
G1 X123.441 Y105.604 E6.54062
G1 X123.601 Y105.440 E6.54614
G1 X123.675 Y105.418 E6.54801
G1 X123.772 Y105.436 E6.55037
G1 X123.871 Y105.572 E6.55441
G1 X123.901 Y105.662 E6.55670
G1 X123.914 Y108.757 E6.63114
G1 X123.897 Y108.968 E6.63623
G1 X123.854 Y109.155 E6.64084
G1 X123.797 Y109.298 E6.64454
G1 X122.586 Y109.889 E6.67695
G1 X127.479 Y126.999 E7.10495
G1 X127.541 Y127.313 E7.11264
G1 X127.548 Y127.613 E7.11985
G1 X127.503 Y127.922 E7.12735
G1 X127.405 Y128.220 E7.13490
G1 X127.273 Y128.474 E7.14178
G1 X127.094 Y128.713 E7.14897
G1 X126.867 Y128.929 E7.15649
G1 X126.604 Y129.104 E7.16410
G1 X126.335 Y129.224 E7.17118
G1 X126.020 Y129.303 E7.17900
G1 X125.722 Y129.319 E7.18618
G1 X124.215 Y121.968 E7.36664
G1 X120.905 Y113.519 E7.58490
G1 X116.695 Y110.084 E7.71556
G1 X115.018 Y110.084 E7.75588
G1 X108.018 Y103.084 E7.99397
G1 X101.212 Y103.084 E8.15765
G1 X93.502 Y110.795 E8.41989
G1 X93.137 Y111.121 E8.43166
G1 X92.742 Y111.401 E8.44331
G1 X92.318 Y111.635 E8.45496
G1 X91.871 Y111.821 E8.46661
G1 X91.405 Y111.955 E8.47826
G1 X90.928 Y112.036 E8.48991
G1 X90.444 Y112.063 E8.50156
G1 X89.960 Y112.036 E8.51321
G1 X89.483 Y111.955 E8.52486
G1 X89.017 Y111.821 E8.53652
G1 X88.570 Y111.635 E8.54817
G1 X88.146 Y111.401 E8.55982
G1 X87.751 Y111.121 E8.57147
G1 X87.389 Y110.798 E8.58312
G1 X87.067 Y110.437 E8.59477
G1 X86.786 Y110.042 E8.60642
G1 X86.552 Y109.618 E8.61807
G1 X86.367 Y109.170 E8.62972
G1 X86.232 Y108.705 E8.64137
G1 X86.151 Y108.227 E8.65302
G1 X86.124 Y107.742 E8.66470
G1 X86.152 Y107.065 E8.68100
G1 X86.232 Y106.390 E8.69735
G1 X86.363 Y105.723 E8.71370
G1 X86.546 Y105.068 E8.73004
G1 X86.779 Y104.430 E8.74639
G1 X87.060 Y103.811 E8.76274
G1 X87.388 Y103.215 E8.77908
G1 X87.760 Y102.647 E8.79542
G1 X88.186 Y102.098 E8.81213
G1 X88.631 Y101.605 E8.82812
G1 X89.124 Y101.137 E8.84447
G1 X89.655 Y100.706 E8.86090
G1 X110.062 Y85.401 E9.47439
G1 X111.784 Y83.679 E9.53296
G1 X111.917 Y83.775 E9.53691
G1 X111.858 Y83.894 E9.54010
G1 X111.709 Y84.324 E9.55105
G1 X111.619 Y84.771 E9.56201
G1 X111.589 Y85.225 E9.57295
G1 X111.619 Y85.679 E9.58390
G1 X111.709 Y86.125 E9.59486
G1 X111.858 Y86.556 E9.60580
G1 X112.061 Y86.962 E9.61673
G1 X112.318 Y87.339 E9.62771
G1 X112.623 Y87.680 E9.63871
G1 X113.081 Y88.050 E9.65286
G1 X113.350 Y88.222 E9.66055
G1 X113.764 Y88.417 E9.67154
G1 X114.329 Y88.581 E9.68570
G1 X114.644 Y88.634 E9.69339
G1 X115.101 Y88.654 E9.70437
G1 X115.685 Y88.587 E9.71853
G1 X115.997 Y88.513 E9.72623
G1 X116.425 Y88.354 E9.73721
G1 X116.938 Y88.065 E9.75137
G1 X117.196 Y87.875 E9.75907
G1 X117.528 Y87.563 E9.77004
G1 X117.891 Y87.099 E9.78421
G1 X118.054 Y86.823 E9.79191
G1 X118.239 Y86.407 E9.80287
G1 X118.393 Y85.838 E9.81704
G1 X118.436 Y85.520 E9.82475
G1 X118.445 Y85.065 E9.83570
G1 X118.367 Y84.479 E9.84992
G1 X118.239 Y84.042 E9.86087
G1 X118.114 Y83.747 E9.86858
G1 X117.816 Y83.239 E9.88275
G1 X117.528 Y82.885 E9.89371
G1 X117.298 Y82.663 E9.90141
G1 X116.827 Y82.309 E9.91558
G1 X116.424 Y82.095 E9.92655
G1 X116.125 Y81.980 E9.93425
G1 X115.554 Y81.836 E9.94841
G1 X115.099 Y81.795 E9.95939
G1 X114.779 Y81.806 E9.96709
G1 X114.197 Y81.894 E9.98124
G1 X113.762 Y82.033 E9.99225
G1 X113.561 Y82.128 E9.99759
G1 X113.467 Y81.995 E10.00149
G1 X118.130 Y77.333 E10.16006
G1 X118.830 Y77.334 E10.17690
G1 X118.869 Y77.373 E10.17824
G1 X120.686 Y77.373 E10.22194
G1 X120.905 Y77.395 E10.22722
G1 X121.106 Y77.457 E10.23228
G1 X121.291 Y77.557 E10.23734
G1 X121.453 Y77.691 E10.24242
G1 X121.580 Y77.845 E10.24721
G1 X121.684 Y78.041 E10.25255
G1 X121.742 Y78.232 E10.25734
G1 X121.764 Y78.452 E10.26266
G1 X121.764 Y78.999 E10.27581
G1 X118.828 Y81.935 E10.37568
G1 X118.189 Y82.170 F7800.000
G1 X118.117 Y82.813
;TYPE:Gap fill
;WIDTH:0.104885
G1 F1800.000
G1 X118.282 Y83.000 E10.37692
G1 X118.426 Y83.562 F7800.000
;WIDTH:0.210286
G1 F1800.000
G1 X118.540 Y84.275 E10.38619
;WIDTH:0.117476
G1 X118.583 Y84.731 E10.38889
G1 X118.583 Y85.783 F7800.000
;WIDTH:0.0916851
G1 F1800.000
G1 X118.577 Y85.877 E10.38927
;WIDTH:0.132462
G1 X118.556 Y86.030 E10.39035
;WIDTH:0.173237
G1 X118.536 Y86.183 E10.39191
;WIDTH:0.214012
G1 X118.516 Y86.336 E10.39393
;WIDTH:0.260608
G1 X118.423 Y86.904 E10.40349
G1 X118.282 Y87.455 F7800.000
;WIDTH:0.120406
G1 F1800.000
G1 X118.059 Y87.699 E10.40552
G1 E5.40552 F2400.000
G92 E0
G1 X114.416 Y81.508 F7800.000
G1 E5.00000 F2400.000
;WIDTH:0.201456
G1 F1800.000
G1 X113.910 Y81.789 E5.00705
G1 E0.00705 F2400.000
G92 E0
G1 X111.550 Y84.140 F7800.000
G1 E5.00000 F2400.000
;WIDTH:0.119049
G1 F1800.000
G1 X111.523 Y84.271 E5.00080
;WIDTH:0.102937
G1 X111.500 Y84.446 E5.00166
G1 E0.00166 F2400.000
G92 E0
G1 X121.025 Y78.525 F7800.000
G1 E5.00000 F2400.000
;TYPE:Solid infill
;WIDTH:0.370173
G1 F1800.000
G1 X120.798 Y78.298 E5.00795
G1 X120.728 Y78.269 E5.00983
G1 X120.298 Y78.267 E5.02052
G1 X120.772 Y78.741 E5.03716
G1 X120.538 Y78.975 E5.04539
G1 X119.826 Y78.264 E5.07036
G1 X119.354 Y78.261 E5.08206
G1 X120.303 Y79.210 E5.11534
G1 X120.069 Y79.444 E5.12357
G1 X118.883 Y78.259 E5.16517
G1 X118.503 Y78.256 E5.17461
G1 X118.479 Y78.233 E5.17542
G1 X118.434 Y78.279 E5.17702
G1 X119.834 Y79.679 E5.22615
G1 X119.600 Y79.913 E5.23438
G1 X118.200 Y78.513 E5.28351
G1 X117.965 Y78.747 E5.29173
G1 X119.365 Y80.148 E5.34086
G1 X119.131 Y80.382 E5.34909
G1 X117.731 Y78.982 E5.39822
G1 X117.496 Y79.216 E5.40645
G1 X118.896 Y80.616 E5.45558
G1 X118.662 Y80.851 E5.46381
G1 X117.262 Y79.451 E5.51294
G1 X117.027 Y79.685 E5.52116
G1 X118.428 Y81.085 E5.57029
G1 X118.193 Y81.320 E5.57852
G1 X116.793 Y79.920 E5.62765
G1 X116.559 Y80.154 E5.63588
G1 X117.959 Y81.554 E5.68501
G1 X117.880 Y81.633 E5.68777
G1 X117.880 Y81.945 E5.69550
G1 X116.324 Y80.388 E5.75010
G1 X116.090 Y80.623 E5.75833
G1 X116.735 Y81.268 E5.78095
G1 X116.393 Y81.136 E5.79004
G1 X116.047 Y81.049 E5.79889
G1 X115.753 Y80.755 E5.80920
G1 E0.80920 F2400.000
G92 E0
G1 X123.172 Y107.090 F7800.000
G1 E5.00000 F2400.000
;WIDTH:0.360521
G1 F1800.000
G1 X122.823 Y106.741 E5.01190
G1 X122.402 Y106.775 E5.02208
G1 X123.027 Y107.400 E5.04337
G1 X123.025 Y107.853 E5.05430
G1 X121.931 Y106.759 E5.09156
