; generated by PrusaSlicer 2.3.1+win64 on 2021-07-07 at 10:37:50 UTC

; 

; external perimeters extrusion width = 0.68mm
; perimeters extrusion width = 0.68mm
; infill extrusion width = 0.68mm
; solid infill extrusion width = 0.68mm
; top infill extrusion width = 0.60mm
; first layer extrusion width = 0.70mm

M201 X500 Y500 Z100 E5000 ; sets maximum accelerations, mm/sec^2
M203 X500 Y500 Z10 E60 ; sets maximum feedrates, mm/sec
M204 P500 R1000 T500 ; sets acceleration (P, T) and retract acceleration (R), mm/sec^2
M205 X8.00 Y8.00 Z0.20 E5.00 ; sets the jerk limits, mm/sec
M205 S0 T0 ; sets the minimum extruding and travel feed rate, mm/sec
M107
M190 S57 ; set bed temperature and wait for it to be reached
M104 S207 ; set temperature
;TYPE:Custom
G28 ; home all axes
G1 Z5 F5000 ; lift nozzle
M109 S207 ; set temperature and wait for it to be reached
G21 ; set units to millimeters
G90 ; use absolute coordinates
M82 ; use absolute distances for extrusion
G92 E0
; Filament gcode
;LAYER_CHANGE
;Z:0.35
;HEIGHT:0.35
G1 Z0.350 F7800.000
G1 E-5.00000 F2400.000
G92 E0
G1 X82.973 Y85.193 F7800.000
G1 E5.00000 F2400.000
;TYPE:Skirt
;WIDTH:0.7
G1 F1800.000
G1 X84.563 Y83.902 E5.18624
G1 X85.288 Y83.506 E5.26135
G1 X86.418 Y83.036 E5.37263
G1 X88.406 Y82.636 E5.55708
G1 X131.026 Y82.612 E9.43245
G1 X131.888 Y82.668 E9.51103
G1 X133.026 Y82.874 E9.61619
G1 X134.662 Y83.483 E9.77488
G1 X135.914 Y84.233 E9.90760
G1 X136.713 Y84.890 E10.00165
G1 X137.285 Y85.477 E10.07619
G1 X138.101 Y86.546 E10.19850
G1 X138.712 Y87.678 E10.31549
G1 X141.597 Y94.170 E10.96140
G1 X141.983 Y95.335 E11.07303
G1 X142.229 Y97.006 E11.22663
G1 X142.111 Y98.767 E11.38707
G1 X139.440 Y112.773 E12.68362
G1 X139.095 Y113.977 E12.79750
G1 X138.571 Y115.072 E12.90788
G1 X138.001 Y115.932 E13.00170
G1 X122.690 Y135.520 E15.26239
G1 X121.734 Y136.476 E15.38533
G1 X120.410 Y137.376 E15.53090
G1 X118.641 Y138.127 E15.70564
G1 X116.988 Y138.420 E15.85826
G1 X103.650 Y138.440 E17.07109
G1 X102.614 Y138.377 E17.16548
G1 X101.602 Y138.188 E17.25908
G1 X100.381 Y137.756 E17.37690
G1 X99.575 Y137.363 E17.45837
G1 X98.242 Y136.456 E17.60504
G1 X97.262 Y135.460 E17.73201
G1 X81.965 Y115.872 E19.99192
G1 X81.406 Y115.001 E20.08607
G1 X80.874 Y113.839 E20.20227
G1 X80.547 Y112.658 E20.31371
G1 X77.904 Y98.868 E21.59049
G1 X77.769 Y97.045 E21.75667
G1 X77.976 Y95.525 E21.89617
G1 X78.293 Y94.440 E21.99896
G1 X81.712 Y86.851 E22.75580
G1 X82.209 Y86.106 E22.83728
G1 X82.915 Y85.262 E22.93727
G1 E17.93727 F2400.000
G92 E0
G1 X97.146 Y116.634 F7800.000
G1 E5.00000 F2400.000
;TYPE:Perimeter
G1 F1800.000
G1 X98.206 Y117.069 E5.10416
G1 X99.143 Y117.186 E5.19004
G1 X99.401 Y117.180 E5.21353
G1 X100.468 Y117.688 E5.32098
G1 X100.951 Y117.983 E5.37240
G1 X101.994 Y118.726 E5.48883
G1 X102.473 Y119.123 E5.54543
G1 X103.230 Y119.868 E5.64203
G1 X103.460 Y120.155 E5.67545
G1 X103.593 Y120.366 E5.69812
G1 X103.798 Y120.775 E5.73970
G1 X104.039 Y121.491 E5.80845
G1 X104.249 Y121.931 E5.85277
G1 X105.056 Y122.805 E5.96092
G1 X106.555 Y122.826 E6.09723
G1 X107.197 Y122.346 E6.17018
G1 X108.204 Y121.849 E6.27229
G1 X108.736 Y121.512 E6.32953
G1 X109.099 Y121.132 E6.37734
G1 X109.445 Y120.656 E6.43084
G1 X109.775 Y119.594 E6.53200
G1 X109.611 Y118.766 E6.60875
G1 X109.575 Y118.678 E6.61739
G1 X109.554 Y118.266 E6.65487
G1 X109.418 Y117.359 E6.73832
G1 X109.326 Y116.507 E6.81625
G1 X109.193 Y115.679 E6.89250
G1 X109.040 Y114.006 E7.04521
G1 X108.979 Y113.000 E7.13689
G1 X108.952 Y111.961 E7.23134
G1 X108.958 Y110.996 E7.31908
G1 X109.026 Y110.132 E7.39789
G1 X109.128 Y109.525 E7.45391
G1 X109.224 Y109.257 E7.47978
G1 X109.446 Y109.204 E7.50051
G1 X109.839 Y109.257 E7.53659
G1 X110.003 Y109.233 E7.55164
G1 X110.168 Y109.257 E7.56682
G1 X110.556 Y109.204 E7.60242
G1 X110.776 Y109.257 E7.62298
G1 X110.867 Y109.511 E7.64749
G1 X110.975 Y110.136 E7.70518
G1 X111.043 Y111.009 E7.78482
G1 X111.020 Y113.006 E7.96641
G1 X110.960 Y114.005 E8.05738
G1 X110.807 Y115.681 E8.21044
G1 X110.674 Y116.507 E8.28647
G1 X110.582 Y117.359 E8.36440
G1 X110.446 Y118.266 E8.44785
G1 X110.425 Y118.678 E8.48533
G1 X110.389 Y118.766 E8.49398
G1 X110.225 Y119.594 E8.57072
G1 X110.555 Y120.656 E8.67188
G1 X110.901 Y121.132 E8.72538
G1 X111.264 Y121.512 E8.77319
G1 X111.796 Y121.849 E8.83043
G1 X112.803 Y122.346 E8.93255
G1 X113.445 Y122.826 E9.00549
G1 X114.899 Y122.806 E9.13774
G1 X115.665 Y122.052 E9.23541
G1 X115.947 Y121.530 E9.28935
G1 X116.202 Y120.775 E9.36187
G1 X116.407 Y120.366 E9.40345
G1 X116.540 Y120.155 E9.42612
G1 X116.770 Y119.868 E9.45954
G1 X117.527 Y119.123 E9.55614
G1 X118.006 Y118.726 E9.61274
G1 X119.049 Y117.983 E9.72917
G1 X119.532 Y117.688 E9.78059
G1 X120.599 Y117.180 E9.88804
G1 X120.857 Y117.186 E9.91153
G1 X121.794 Y117.069 E9.99741
G1 X122.854 Y116.634 E10.10157
G1 X122.152 Y118.468 E10.28018
G1 X120.640 Y121.867 E10.61844
G1 X120.029 Y123.048 E10.73935
G1 X119.638 Y123.895 E10.82419
G1 X119.141 Y124.805 E10.91843
G1 X118.711 Y125.513 E10.99372
G1 X118.129 Y126.341 E11.08573
G1 X116.299 Y124.539 E11.31931
G1 X114.454 Y125.278 E11.49996
G1 X113.899 Y126.135 E11.59286
G1 X113.810 Y126.351 E11.61406
G1 X113.541 Y126.704 E11.65442
G1 X113.312 Y127.069 E11.69366
G1 X113.013 Y127.396 E11.73392
G1 X112.739 Y127.594 E11.76461
G1 X112.359 Y127.779 E11.80302
G1 X111.760 Y127.433 E11.86589
G1 X110.660 Y128.147 E11.98517
G1 X110.004 Y128.172 E12.04480
G1 X109.340 Y128.147 E12.10521
G1 X108.240 Y127.433 E12.22449
G1 X107.641 Y127.779 E12.28736
G1 X107.261 Y127.594 E12.32577
G1 X106.987 Y127.396 E12.35646
G1 X106.688 Y127.069 E12.39672
G1 X106.459 Y126.704 E12.43596
G1 X106.190 Y126.351 E12.47632
G1 X106.101 Y126.135 E12.49752
G1 X105.546 Y125.278 E12.59042
G1 X103.701 Y124.539 E12.77107
G1 X101.871 Y126.341 E13.00464
G1 X101.289 Y125.513 E13.09666
G1 X100.859 Y124.805 E13.17195
G1 X100.362 Y123.895 E13.26619
G1 X99.971 Y123.048 E13.35103
G1 X99.360 Y121.867 E13.47194
G1 X97.848 Y118.468 E13.81020
G1 X97.178 Y116.718 E13.98063
G1 E8.98063 F2400.000
G92 E0
G1 X117.247 Y126.349 F7800.000
G1 E5.00000 F2400.000
G1 F1800.000
G1 X116.152 Y125.271 E5.13975
G1 X114.871 Y125.784 E5.26520
G1 X114.454 Y126.426 E5.33480
G1 X114.366 Y126.642 E5.35596
G1 X114.246 Y126.828 E5.37612
G1 X114.050 Y127.069 E5.40431
G1 X113.820 Y127.435 E5.44371
G1 X113.640 Y127.655 E5.46952
G1 X113.424 Y127.869 E5.49713
G1 X113.046 Y128.139 E5.53943
G1 X112.335 Y128.486 E5.61135
G1 X111.783 Y128.168 E5.66924
G1 X111.084 Y128.630 E5.74546
G1 X110.913 Y128.719 E5.76301
G1 X110.730 Y128.776 E5.78039
G1 X110.004 Y128.798 E5.84642
G1 X109.270 Y128.776 E5.91327
G1 X109.087 Y128.719 E5.93064
G1 X108.916 Y128.630 E5.94820
G1 X108.217 Y128.168 E6.02442
G1 X107.665 Y128.486 E6.08230
G1 X106.954 Y128.139 E6.15422
G1 X106.810 Y128.047 E6.16982
G1 X106.576 Y127.869 E6.19655
G1 X106.360 Y127.655 E6.22417
G1 X106.180 Y127.435 E6.24998
G1 X105.950 Y127.069 E6.28938
G1 X105.754 Y126.828 E6.31757
G1 X105.634 Y126.642 E6.33772
G1 X105.546 Y126.426 E6.35888
G1 X105.129 Y125.784 E6.42848
G1 X103.848 Y125.271 E6.55394
G1 X102.753 Y126.349 E6.69369
G1 X103.018 Y127.041 E6.76108
G1 X102.976 Y127.224 E6.77814
G1 X102.964 Y127.843 E6.83438
G1 X103.041 Y128.422 E6.88751
G1 X103.340 Y129.693 E7.00625
G1 X103.411 Y129.906 E7.02662
G1 X103.395 Y130.234 E7.05656
G1 X103.110 Y130.293 E7.08302
G1 X102.780 Y129.616 E7.15145
G1 X102.615 Y129.130 E7.19813
G1 X102.319 Y128.424 E7.26775
G1 X102.039 Y127.833 E7.32723
G1 X101.652 Y127.143 E7.39914
G1 X101.171 Y126.416 E7.47839
G1 X100.768 Y125.859 E7.54100
G1 X100.317 Y125.117 E7.61989
G1 X99.803 Y124.177 E7.71734
G1 X99.409 Y123.323 E7.80282
G1 X98.796 Y122.138 E7.92413
G1 X97.271 Y118.707 E8.26557
G1 X95.984 Y115.348 E8.59260
G1 X95.848 Y114.917 E8.63373
G1 X96.130 Y114.772 E8.66253
G1 X96.525 Y115.300 E8.72245
G1 X97.069 Y115.806 E8.79006
G1 X97.400 Y116.063 E8.82815
G1 X98.366 Y116.459 E8.92306
G1 X99.175 Y116.560 E8.99720
G1 X99.536 Y116.552 E9.03001
G1 X100.766 Y117.138 E9.15392
G1 X101.291 Y117.459 E9.20992
G1 X101.819 Y117.824 E9.26821
G1 X102.378 Y118.233 E9.33117
G1 X102.892 Y118.659 E9.39190
G1 X103.695 Y119.449 E9.49434
G1 X103.969 Y119.792 E9.53426
G1 X104.144 Y120.067 E9.56394
G1 X104.285 Y120.377 E9.59487
G1 X104.366 Y120.503 E9.60851
G1 X104.619 Y121.256 E9.68072
G1 X104.772 Y121.577 E9.71304
G1 X105.333 Y122.184 E9.78818
G1 X106.351 Y122.198 E9.88076
G1 X106.883 Y121.801 E9.94114
G1 X107.894 Y121.306 E10.04356
G1 X108.337 Y121.025 E10.09122
G1 X108.618 Y120.731 E10.12821
G1 X108.879 Y120.372 E10.16854
G1 X109.132 Y119.559 E10.24594
G1 X109.011 Y118.948 E10.30257
G1 X108.965 Y118.839 E10.31331
G1 X108.929 Y118.545 E10.34024
G1 X108.929 Y118.313 E10.36140
G1 X108.798 Y117.439 E10.44178
G1 X108.706 Y116.590 E10.51941
G1 X108.572 Y115.758 E10.59605
G1 X108.417 Y114.053 E10.75170
G1 X108.355 Y113.027 E10.84517
G1 X108.327 Y111.967 E10.94153
G1 X108.334 Y110.970 E11.03223
G1 X108.405 Y110.056 E11.11557
G1 X108.524 Y109.359 E11.17984
G1 X108.674 Y108.941 E11.22031
G1 X108.822 Y108.767 E11.24103
G1 X109.066 Y108.652 E11.26559
G1 X109.413 Y108.569 E11.29803
G1 X109.836 Y108.626 E11.33680
G1 X110.004 Y108.601 E11.35222
G1 X110.171 Y108.626 E11.36763
G1 X110.588 Y108.569 E11.40586
G1 X110.934 Y108.652 E11.43821
G1 X111.178 Y108.767 E11.46276
G1 X111.326 Y108.941 E11.48349
G1 X111.473 Y109.351 E11.52313
G1 X111.595 Y110.058 E11.58841
G1 X111.667 Y110.978 E11.67226
G1 X111.675 Y111.355 E11.70655
G1 X111.645 Y113.031 E11.85897
G1 X111.583 Y114.052 E11.95200
G1 X111.427 Y115.759 E12.10786
G1 X111.294 Y116.590 E12.18437
G1 X111.202 Y117.439 E12.26201
G1 X111.071 Y118.313 E12.34238
G1 X111.071 Y118.545 E12.36354
G1 X111.035 Y118.839 E12.39048
G1 X110.989 Y118.948 E12.40121
G1 X110.868 Y119.559 E12.45785
G1 X111.121 Y120.372 E12.53524
G1 X111.382 Y120.731 E12.57557
G1 X111.663 Y121.025 E12.61257
G1 X112.106 Y121.306 E12.66023
G1 X113.117 Y121.801 E12.76264
G1 X113.649 Y122.198 E12.82302
G1 X114.640 Y122.184 E12.91312
G1 X115.160 Y121.672 E12.97950
G1 X115.373 Y121.280 E13.02007
G1 X115.634 Y120.503 E13.09458
G1 X115.715 Y120.377 E13.10822
G1 X115.856 Y120.067 E13.13915
G1 X116.031 Y119.792 E13.16883
G1 X116.305 Y119.449 E13.20875
G1 X117.108 Y118.659 E13.31118
G1 X117.622 Y118.233 E13.37192
G1 X118.181 Y117.824 E13.43488
G1 X118.709 Y117.459 E13.49317
G1 X119.234 Y117.138 E13.54916
G1 X120.464 Y116.552 E13.67308
G1 X120.825 Y116.560 E13.70589
G1 X121.634 Y116.459 E13.78002
G1 X122.600 Y116.063 E13.87494
G1 X122.931 Y115.806 E13.91302
G1 X123.475 Y115.300 E13.98064
G1 X123.870 Y114.772 E14.04056
G1 X124.152 Y114.917 E14.06935
G1 X124.016 Y115.348 E14.11048
G1 X122.729 Y118.707 E14.43752
G1 X121.204 Y122.138 E14.77896
G1 X120.591 Y123.323 E14.90027
G1 X120.197 Y124.177 E14.98575
G1 X119.683 Y125.117 E15.08320
G1 X119.232 Y125.859 E15.16209
G1 X118.829 Y126.416 E15.22470
G1 X118.348 Y127.143 E15.30395
G1 X117.961 Y127.833 E15.37586
G1 X117.681 Y128.424 E15.43534
G1 X117.385 Y129.130 E15.50494
G1 X117.219 Y129.617 E15.55174
G1 X116.891 Y130.292 E15.61995
G1 X116.606 Y130.234 E15.64633
G1 X116.589 Y129.906 E15.67624
G1 X116.659 Y129.694 E15.69654
G1 X116.956 Y128.437 E15.81396
G1 X117.035 Y127.844 E15.86833
G1 X117.025 Y127.230 E15.92424
G1 X116.982 Y127.041 E15.94180
G1 X117.215 Y126.433 E16.00102
G1 E11.00102 F2400.000
G92 E0
G1 X91.742 Y106.653 F7800.000
G1 E5.00000 F2400.000
G1 F1800.000
G1 X91.070 Y106.073 E5.08075
G1 X90.538 Y105.705 E5.13960
G1 X90.346 Y105.529 E5.16325
G1 X90.279 Y105.408 E5.17581
G1 X90.238 Y105.230 E5.19245
G1 X90.249 Y105.092 E5.20499
G1 X90.287 Y104.967 E5.21692
G1 X90.364 Y104.829 E5.23127
G1 X90.478 Y104.694 E5.24736
G1 X90.620 Y104.576 E5.26410
G1 X90.761 Y104.496 E5.27883
G1 X90.915 Y104.442 E5.29374
G1 X91.070 Y104.421 E5.30792
G1 X91.224 Y104.438 E5.32204
G1 X91.354 Y104.482 E5.33450
G1 X91.458 Y104.545 E5.34558
G1 X91.592 Y104.706 E5.36458
G1 X91.655 Y104.923 E5.38513
G1 X91.656 Y105.925 E5.47624
G1 X91.732 Y106.564 E5.53474
G1 E0.53474 F2400.000
G92 E0
G1 X96.830 Y106.327 F7800.000
G1 E5.00000 F2400.000
G1 F1800.000
G1 X96.973 Y106.178 E5.01882
G1 X97.070 Y106.124 E5.02894
G1 X97.216 Y106.089 E5.04259
G1 X97.362 Y106.084 E5.05585
G1 X97.455 Y106.102 E5.06445
G1 X97.618 Y106.199 E5.08176
G1 X97.708 Y106.293 E5.09356
G1 X97.811 Y106.480 E5.11295
G1 X97.825 Y106.640 E5.12755
G1 X97.784 Y106.792 E5.14190
G1 X97.689 Y106.923 E5.15660
G1 X96.814 Y107.632 E5.25902
G1 X96.795 Y106.651 E5.34821
G1 X96.820 Y106.417 E5.36968
G1 E0.36968 F2400.000
G92 E0
G1 X94.729 Y110.284 F7800.000
G1 E5.00000 F2400.000
G1 F1800.000
G1 X94.655 Y110.574 E5.02726
G1 X94.391 Y110.993 E5.07231
G1 X93.787 Y110.862 E5.12845
G1 X93.543 Y110.781 E5.15186
G1 X93.226 Y110.621 E5.18417
G1 X93.555 Y110.081 E5.24164
G1 X93.729 Y110.154 E5.25879
G1 X94.439 Y110.274 E5.32422
G1 X94.639 Y110.281 E5.34244
G1 X95.615 Y109.566 F7800.000
G1 F1800.000
G1 X95.227 Y110.858 E5.46507
G1 X94.939 Y111.295 E5.51268
G1 X94.697 Y112.011 E5.58146
G1 X94.189 Y111.589 E5.64157
G1 X93.622 Y111.465 E5.69429
G1 X93.303 Y111.360 E5.72489
G1 X93.004 Y111.209 E5.75537
G1 X92.162 Y110.871 E5.83786
G1 X92.443 Y110.621 E5.87207
G1 X92.635 Y110.388 E5.89953
G1 X92.935 Y109.898 E5.95175
G1 X93.053 Y109.499 E5.98963
G1 X93.105 Y109.162 E6.02058
G1 X93.417 Y109.346 E6.05350
G1 X93.904 Y109.550 E6.10157
G1 X94.501 Y109.651 E6.15661
G1 X94.924 Y109.665 E6.19508
G1 X95.308 Y109.641 E6.23007
G1 X95.527 Y109.587 E6.25061
G1 E1.25061 F2400.000
G92 E0
G1 X89.573 Y110.873 F7800.000
G1 E5.00000 F2400.000
G1 F1800.000
G1 X89.549 Y111.148 E5.02516
G1 X89.018 Y111.263 E5.07454
G1 X88.519 Y111.324 E5.12027
G1 X88.327 Y111.293 E5.13792
G1 X88.213 Y111.232 E5.14966
G1 X88.202 Y111.068 E5.16464
G1 X88.247 Y110.835 E5.18618
G1 X88.355 Y110.672 E5.20399
G1 X88.514 Y110.572 E5.22108
G1 X88.605 Y110.551 E5.22959
G1 X88.766 Y110.560 E5.24419
G1 X89.490 Y110.839 E5.31472
G1 E0.31472 F2400.000
G92 E0
G1 X128.279 Y106.605 F7800.000
G1 E5.00000 F2400.000
G1 F1800.000
G1 X128.343 Y105.553 E5.09583
G1 X128.337 Y105.038 E5.14267
G1 X128.378 Y104.776 E5.16682
G1 X128.409 Y104.698 E5.17442
G1 X128.537 Y104.545 E5.19258
G1 X128.642 Y104.482 E5.20372
G1 X128.769 Y104.437 E5.21594
G1 X128.920 Y104.425 E5.22979
G1 X129.055 Y104.441 E5.24209
G1 X129.253 Y104.503 E5.26096
G1 X129.379 Y104.576 E5.27423
G1 X129.521 Y104.694 E5.29104
G1 X129.628 Y104.819 E5.30597
G1 X129.706 Y104.967 E5.32120
G1 X129.747 Y105.093 E5.33320
G1 X129.755 Y105.232 E5.34590
G1 X129.722 Y105.412 E5.36257
G1 X129.601 Y105.591 E5.38222
G1 X129.481 Y105.695 E5.39667
G1 X128.943 Y106.064 E5.45596
G1 X128.349 Y106.548 E5.52564
G1 E0.52564 F2400.000
G92 E0
G1 X123.184 Y106.366 F7800.000
G1 E5.00000 F2400.000
G1 F1800.000
G1 X123.215 Y106.609 E5.02234
G1 X123.171 Y107.610 E5.11338
G1 X122.309 Y106.920 E5.21372
G1 X122.217 Y106.794 E5.22796
G1 X122.177 Y106.652 E5.24135
G1 X122.196 Y106.464 E5.25852
G1 X122.232 Y106.381 E5.26668
G1 X122.380 Y106.201 E5.28796
G1 X122.550 Y106.100 E5.30595
G1 X122.634 Y106.083 E5.31375
G1 X122.775 Y106.089 E5.32656
G1 X122.935 Y106.126 E5.34151
G1 X123.023 Y106.173 E5.35051
G1 X123.140 Y106.288 E5.36544
G1 E0.36544 F2400.000
G92 E0
G1 X125.252 Y110.284 F7800.000
G1 E5.00000 F2400.000
G1 F1800.000
G1 X125.559 Y110.274 E5.02795
G1 X126.194 Y110.170 E5.08639
G1 X126.445 Y110.085 E5.11050
G1 X126.774 Y110.621 E5.16770
G1 X126.372 Y110.816 E5.20833
G1 X125.613 Y110.980 E5.27901
G1 X125.329 Y110.552 E5.32571
G1 X125.277 Y110.371 E5.34285
G1 X124.367 Y109.600 F7800.000
G1 F1800.000
G1 X125.061 Y109.665 E5.40620
G1 X125.498 Y109.651 E5.44601
G1 X126.042 Y109.561 E5.49612
G1 X126.440 Y109.427 E5.53436
G1 X126.896 Y109.165 E5.58215
G1 X126.947 Y109.499 E5.61289
G1 X127.067 Y109.903 E5.65126
G1 X127.386 Y110.422 E5.70667
G1 X127.831 Y110.885 E5.76508
G1 X127.002 Y111.206 E5.84596
G1 X126.569 Y111.409 E5.88941
G1 X126.402 Y111.459 E5.90532
G1 X125.803 Y111.579 E5.96078
G1 X125.283 Y112.036 E6.02377
G1 X125.081 Y111.309 E6.09233
G1 X124.763 Y110.846 E6.14340
G1 X124.493 Y109.902 E6.23274
G1 X124.402 Y109.683 E6.25425
G1 E1.25425 F2400.000
G92 E0
G1 X130.428 Y110.873 F7800.000
G1 E5.00000 F2400.000
